!!!!SEGMENT: pl-stab--15a--001-002_rodowski-aleksander--missa-in-b-gloria.krn
!!!cenid: 18xx:3442
!!!COM: Rodowski, Aleksander
!!!COM-rismID: pe30009627
!!!CDT: <1790->1810
!!!CNT: Polish
!!!OPR: Missa in B
!!!OTL: Gloria
!!!OMV: 002
!!!PDT: 1802
!!!AGN:
!!!SMS-siglum: PL-STAb
!!!SMS-shelfmark: 15a
!!!SMS-shelfwork: 001-002 M
!!!SMS-variant: Canto: PL-STAb 15a:9-11
!!!SMS-altvar: Canto: PL-STAb 15a:12-15
!!!NIFC-rismSourceID: 301050682
!!!NIFC-islandoraID: pl-stab:2768
!!!URL-pdf-islandora: https://repozytorium.nifc.pl/islandora/object/pl-stab%3A2768/datastream/PDF/view
!!!URL-scan: https://polish.musicsources.pl/pl/lokalizacje/galeria/rekopisy/4421 @EN{Scan on Polish Music Sources Website} @PL{Skany w portalu Dziedzictwo Muzyki Polskiej w otwartym dostępie}
!!!ONB-nifc: UWAGA: części Mszy: 1. Kyrie, 2. Gloria, 3. Patrem, 4. Sanctus, 5. Benedictus, 6. Agnus Dei
!!!AIN: 1 bass 2 clars 2 cor 1 organ 1 soprn 2 violn
!!!key: B-
**kern	**kern	**dynam	**kern	**dynam	**kern	**text	**kern	**text	**kern	**kern	**kern	**kern
*	*group4	*	*group4	*	*group3	*	*group3	*	*group2	*group2	*group1	*group1
*part9	*part7	*part7	*part8	*part8	*part6	*part6	*part5	*part5	*part4	*part3	*part2	*part1
*staff9	*staff7	*	*staff8	*	*staff6	*staff6	*staff5	*staff5	*staff4	*staff3	*staff2	*staff1
*I"Organo	*I"Violino Secundo	*	*I"Violino Primo	*	*I"Baſso	*	*I"Canto	*	*I"Cornu Secundo in B.	*I"Cornu Primo in B.	*I"Clarinetto Secundo	*I"Clarinetto Primo
*I'org	*I'vl 2	*	*I'vl 1	*	*I'B	*	*I'S	*	*I'cor 2 in B	*I'cor 1 in B	*I'cl 2	*I'cl 1
*Iorgan	*Ivioln	*	*Ivioln	*	*Ibass	*	*Isoprn	*	*Icor	*Icor	*Iclars	*Iclars
*ICklav	*ICstr	*	*ICstr	*	*ICvox	*	*ICvox	*	*ICbras	*ICbras	*ICww	*ICww
*	*	*	*	*	*IGsolo	*	*IGsolo	*	*	*	*	*
*clefF4	*clefG2	*	*clefG2	*	*clefF4	*	*clefC1	*	*clefG2	*clefG2	*clefG2	*clefG2
*	*	*	*	*	*	*	*	*	*ITrd1c2	*ITrd1c2	*ITrd1c2	*ITrd1c2
*k[b-e-]	*k[b-e-]	*	*k[b-e-]	*	*k[b-e-]	*	*k[b-e-]	*	*k[b-e-]	*k[b-e-]	*k[b-e-]	*k[b-e-]
*B-:	*B-:	*	*B-:	*	*B-:	*	*B-:	*	*B-:	*B-:	*B-:	*B-:
*M3/4	*M3/4	*	*M3/4	*	*M3/4	*	*M3/4	*	*M3/4	*M3/4	*M3/4	*M3/4
*all\left	*all\left	*	*all\left	*	*all\left	*	*all\left	*	*all\left	*all\left	*all\left	*all\left
*2\right	*2\right	*	*2\right	*	*2\right	*	*2\right	*	*2\right	*2\right	*2\right	*2\right
=1	=1	=1	=1	=1	=1	=1	=1	=1	=1	=1	=1	=1
*tremolo	*	*	*	*	*	*	*	*	*	*	*	*
!	!	!	!	!	!	!	!LO:TX:t=P:B-b-e-:problem=znaki przykluczowe	!	!	!	!	!
!	!	!	!LO:TX:t=P:problem=segno na podwójnej kresce	!	!	!	!	!	!LO:TX:t=P:problem=segno na podwójnej kresce	!LO:TX:t=P:problem=segno na podwójnej kresce	!	!
8B-\L	4.d/	.	4.b-\	.	2D\	Glo-	2b-\	Glo-	4.d/	4.b-\	4.d/	4.b-\
8B-\	.	.	.	.	.	.	.	.	.	.	.	.
8B-\	.	.	.	.	.	.	.	.	.	.	.	.
8B-\	8e-/L	.	8cc\L	.	.	.	.	.	8f/L	8cc\L	8e-/L	8cc\L
8B-\	8d/	.	8b-\	.	4D\	-ri-	4b-\	-ri-	8d/	8b-\	8d/	8b-\
8B-\J	8e-/J	.	8cc\J	.	.	.	.	.	8f/J	8cc\J	8e-/J	8cc\J
=2	=2	=2	=2	=2	=2	=2	=2	=2	=2	=2	=2	=2
8B-\L	4d/	.	4b-\	.	4D\	-a	4b-\	-a	4d/	4b-\	4d/	4b-\
8B-\	.	.	.	.	.	.	.	.	.	.	.	.
!	!LO:TX:t=P:problem=mixed beam	!	!	!	!	!	!	!	!	!	!	!
8B-\	8e-/L	.	8cc\L	.	4r	.	4r	.	4r	4r	4r	4r
8B-\	8d/	.	8b-\	.	.	.	.	.	.	.	.	.
8B-\	8cc\	.	8ee-\	.	4r	.	4r	.	4r	4r	4r	4r
8B-\J	8b-\J	.	8dd\J	.	.	.	.	.	.	.	.	.
=3	=3	=3	=3	=3	=3	=3	=3	=3	=3	=3	=3	=3
*	*	*	*	*	*	*ij	*	*ij	*	*	*	*
8B-\L	4.b-\	.	4.dd\	.	2B-\	Glo-	2dd\	Glo-	4.b-\	4.dd\	4.b-\	4.dd\
8B-\	.	.	.	.	.	.	.	.	.	.	.	.
8B-\	.	.	.	.	.	.	.	.	.	.	.	.
8B-\	8cc\L	.	8ee-\L	.	.	.	.	.	8cc\L	8ee-\L	8cc\L	8ee-\L
8B-\	8b-\	.	8dd\	.	4B-\	-ri-	4dd\	-ri-	8b-\	8dd\	8b-\	8dd\
8B-\J	8cc\J	.	8ee-\J	.	.	.	.	.	8cc\J	8ee-\J	8cc\J	8ee-\J
=4	=4	=4	=4	=4	=4	=4	=4	=4	=4	=4	=4	=4
8B-\L	4b-\	.	4dd\	.	4B-\	-a	4dd\	-a	4b-\	4dd\	4b-\	4dd\
*	*	*	*	*	*	*Xij	*	*	*	*	*	*
8B-\	.	.	.	.	.	.	.	.	.	.	.	.
8B-\	8cc\L	.	8ee-\L	.	4r	.	4r	.	4r	4r	4r	4r
8B-\	8b-\	.	8dd\	.	.	.	.	.	.	.	.	.
8B-\	8ee-\	.	8gg\	.	4r	.	4r	.	4r	4r	4r	4r
8B-\J	8dd\J	.	8ff\J	.	.	.	.	.	.	.	.	.
=5	=5	=5	=5	=5	=5	=5	=5	=5	=5	=5	=5	=5
8B-\L	4.dd\	.	4.ff\	.	2d\	in	2ff\	Glo-	4.dd\	4.ff\	4.dd\	4.ff\
8B-\	.	.	.	.	.	.	.	.	.	.	.	.
8B-\	.	.	.	.	.	.	.	.	.	.	.	.
8B-\	8ee-\L	.	8gg\L	.	.	.	.	.	8ee-\L	8gg\L	8ee-\L	8gg\L
8B-\	8dd\	.	8ff\	.	4d\	ex-	4ff\	-ri-	8dd\	8ff\	8dd\	8ff\
8B-\J	8ee-\J	.	8gg\J	.	.	.	.	.	8ee-\J	8gg\J	8ee-\J	8gg\J
=6	=6	=6	=6	=6	=6	=6	=6	=6	=6	=6	=6	=6
8B-\L	4dd\	.	4ff\	.	4d\	-cel-	4ff\	-a	4dd\	4ff\	4dd\	4ff\
*	*	*	*	*	*	*	*	*Xij	*	*	*	*
8B-\	.	.	.	.	.	.	.	.	.	.	.	.
8B-\	8dd\L	.	8bb-\L	.	8d\L	.	8bb-\	in-	4r	4r	4r	4r
8B-\	8dd\	.	8ff\	.	8d\	.	8ff\	-ex-	.	.	.	.
8B-\	8b-\	.	8dd\	.	8B-\	.	8dd\	-xel-	4r	4r	4r	4r
8B-\J	8dd\J	.	8gg\J	.	8e-\J	-sis	8gg\	-sis	.	.	.	.
=7	=7	=7	=7	=7	=7	=7	=7	=7	=7	=7	=7	=7
*	*tremolo	*	*	*	*	*	*	*	*	*	*	*
8B-\L	16dd 16f\LL	.	8ff\L	.	2.d\	De-	(2.ff\	De-	2.d/	2.b-\	2.dd\	2.ff\
.	16dd 16f\	.	.	.	.	.	.	.	.	.	.	.
8B-\	16dd 16f\	.	8bb-\	.	.	.	.	.	.	.	.	.
.	16dd 16f\	.	.	.	.	.	.	.	.	.	.	.
8B-\	16dd 16f\	.	8ddd\	.	.	.	.	.	.	.	.	.
.	16dd 16f\	.	.	.	.	.	.	.	.	.	.	.
8B-\	16dd 16f\	.	8bb-\	.	.	.	.	.	.	.	.	.
.	16dd 16f\	.	.	.	.	.	.	.	.	.	.	.
8B-\	16dd 16f\	.	8ff\	.	.	.	.	.	.	.	.	.
.	16dd 16f\	.	.	.	.	.	.	.	.	.	.	.
8B-\J	16dd 16f\	.	8dd\J	.	.	.	.	.	.	.	.	.
.	16dd 16f\JJ	.	.	.	.	.	.	.	.	.	.	.
=8	=8	=8	=8	=8	=8	=8	=8	=8	=8	=8	=8	=8
8F\L	16cc 16f\LL	.	8ee-\L	.	2.c\	.	2.ee-\	.	2.f/	2.cc\	2.cc\	2.ee-\
.	16cc 16f\	.	.	.	.	.	.	.	.	.	.	.
8F\	16cc 16f\	.	8aa\	.	.	.	.	.	.	.	.	.
.	16cc 16f\	.	.	.	.	.	.	.	.	.	.	.
8F\	16cc 16f\	.	8ccc\	.	.	.	.	.	.	.	.	.
.	16cc 16f\	.	.	.	.	.	.	.	.	.	.	.
8F\	16cc 16f\	.	8aa\	.	.	.	.	.	.	.	.	.
.	16cc 16f\	.	.	.	.	.	.	.	.	.	.	.
8F\	16cc 16f\	.	8ff\	.	.	.	.	.	.	.	.	.
.	16cc 16f\	.	.	.	.	.	.	.	.	.	.	.
8F\J	16cc 16f\	.	8ee-\J	.	.	.	.	.	.	.	.	.
.	16cc 16f\JJ	.	.	.	.	.	.	.	.	.	.	.
*	*Xtremolo	*	*	*	*	*	*	*	*	*	*	*
=9	=9	=9	=9	=9	=9	=9	=9	=9	=9	=9	=9	=9
!	!	!	!LO:LB:g=original	!	!	!	!	!	!	!	!	!
!	!	!	!LO:TX:t=P:problem=mixed beam	!	!	!	!	!	!	!	!	!
4B-\	8b-/L	.	8dd\L	.	4B-\	-o	4dd\)	-o	4b-\	4dd\	4b-\	4dd\
.	8d/	.	8f/	.	.	.	.	.	.	.	.	.
4r	8d/	.	8g/	.	4r	.	4r	.	4r	4r	4r	4r
.	8e-/	.	8a/	.	.	.	.	.	.	.	.	.
4r	8c/	.	8b-/	.	4r	.	4r	.	4r	4r	4r	4r
.	8d/J	.	8cc/J	.	.	.	.	.	.	.	.	.
=10	=10	=10	=10	=10	=10	=10	=10	=10	=10	=10	=10	=10
!	!	!	!	!	!	!	!	!	!	!LO:TX:t=1	!	!
2.r	8b-\L	.	8dd\L	.	2.r	.	2.r	.	2.r	2.r	2.r	2.r
.	8f\	.	8a\	.	.	.	.	.	.	.	.	.
.	8g\	.	8b-\	.	.	.	.	.	.	.	.	.
.	8a\	.	8cc\	.	.	.	.	.	.	.	.	.
.	8b-\	.	8dd\	.	.	.	.	.	.	.	.	.
.	8cc\J	.	8ee-\J	.	.	.	.	.	.	.	.	.
=11	=11	=11	=11	=11	=11	=11	=11	=11	=11	=11	=11	=11
!	!	!	!	!	!LO:LB:g=original	!	!	!	!	!	!	!
!	!LO:LB:g=original	!	!	!	!	!	!	!	!	!	!	!
8B-\L	4.dd\	.	4.ff\	.	2d\	glo-	2ff\	glo-	4.dd\	4.ff\	4.dd\	4.ff\
8B-\	.	.	.	.	.	.	.	.	.	.	.	.
8B-\	.	.	.	.	.	.	.	.	.	.	.	.
8B-\	8ee-\L	.	8gg\L	.	.	.	.	.	8ee-\L	8gg\L	8ee-\L	8gg\L
8B-\	8dd\	.	8ff\	.	4d\	-ri-	4ff\	-ri-	8dd\	8ff\	8dd\	8ff\
8B-\J	8ee-\J	.	8gg\J	.	.	.	.	.	8ee-\J	8gg\J	8ee-\J	8gg\J
=12	=12	=12	=12	=12	=12	=12	=12	=12	=12	=12	=12	=12
!	!	!	!	!	!	!	!	!	!LO:LB:g=original	!	!	!
8B-\L	4dd\	.	4ff\	.	4d\	-al	4ff\	-a	4dd\	4ff\	4dd\	4ff\
8B-\	.	.	.	.	.	.	.	.	.	.	.	.
8B-\	8dd\L	.	8bb-\L	.	8d\L	in	8bb-\	in	4r	4r	4r	4r
8B-\	8ee-\	.	8ff\	.	8d\	.	8ff\	ex-	.	.	.	.
!	!	!	!	!	!	!	!LO:LB:g=original	!	!	!	!	!
8B-\	8b-\	.	8dd\	.	8B-\	ex-	8dd\	-cel-	4r	4r	4r	4r
8B-\J	8ee-\J	.	8gg\J	.	8e-\J	-cel-	8gg\	-sis	.	.	.	.
=13	=13	=13	=13	=13	=13	=13	=13	=13	=13	=13	=13	=13
*	*tremolo	*	*	*	*	*	*	*	*	*	*	*
!	!	!	!	!	!	!	!	!	!	!	!	!LO:LB:g=original
!	!	!	!	!	!	!	!	!	!	!	!LO:LB:g=original	!
8B-\L	16dd 16f\LL	.	8ff\L	.	2.d\	-sis	(2.ff\	De-	2.d/	2.b-\	2.dd\	2.ff\
.	16dd 16f\	.	.	.	.	.	.	.	.	.	.	.
8B-\	16dd 16f\	.	8bb-\	.	.	.	.	.	.	.	.	.
.	16dd 16f\	.	.	.	.	.	.	.	.	.	.	.
8B-\	16dd 16f\	.	8ddd\	.	.	.	.	.	.	.	.	.
.	16dd 16f\	.	.	.	.	.	.	.	.	.	.	.
8B-\	16dd 16f\	.	8bb-\	.	.	.	.	.	.	.	.	.
.	16dd 16f\	.	.	.	.	.	.	.	.	.	.	.
8B-\	16dd 16f\	.	8ff\	.	.	.	.	.	.	.	.	.
.	16dd 16f\	.	.	.	.	.	.	.	.	.	.	.
8B-\J	16dd 16f\	.	8dd\J	.	.	.	.	.	.	.	.	.
.	16dd 16f\JJ	.	.	.	.	.	.	.	.	.	.	.
=14	=14	=14	=14	=14	=14	=14	=14	=14	=14	=14	=14	=14
!	!	!	!	!	!	!	!	!	!	!LO:LB:g=original	!	!
8F\L	16cc 16f\LL	.	8ee-\L	.	2.c\	De-	2.ee-\	.	2.f/	2.cc\	2.cc\	2.ee-\
.	16cc 16f\	.	.	.	.	.	.	.	.	.	.	.
8F\	16cc 16f\	.	8aa\	.	.	.	.	.	.	.	.	.
.	16cc 16f\	.	.	.	.	.	.	.	.	.	.	.
8F\	16cc 16f\	.	8ccc\	.	.	.	.	.	.	.	.	.
.	16cc 16f\	.	.	.	.	.	.	.	.	.	.	.
8F\	16cc 16f\	.	8aa\	.	.	.	.	.	.	.	.	.
.	16cc 16f\	.	.	.	.	.	.	.	.	.	.	.
8F\	16cc 16f\	.	8ff\	.	.	.	.	.	.	.	.	.
.	16cc 16f\	.	.	.	.	.	.	.	.	.	.	.
8F\J	16cc 16f\	.	8ee-\J	.	.	.	.	.	.	.	.	.
.	16cc 16f\JJ	.	.	.	.	.	.	.	.	.	.	.
*	*Xtremolo	*	*	*	*	*	*	*	*	*	*	*
=15	=15	=15	=15	=15	=15	=15	=15	=15	=15	=15	=15	=15
4B-\	4b- 4d/	.	4dd\	.	4B-\	-o	4dd\)	-o	4b-\	4dd\	4b-\	4dd\
4B-\	4d 4B-/	.	4b- 4d/	.	4r	.	4r	.	4d/	4b-\	4b-\	4dd\
4B-\	4d 4B-/	.	4b- 4d/	.	4r	.	4r	.	4d/	4b-\	4b-\	4dd\
=16	=16	=16	=16	=16	=16	=16	=16	=16	=16	=16	=16	=16
!	!	!	!	!	!LO:TX:t=1	!	!	!	!	!	!	!
4B-\	4d 4B-/	.	4dd 4d/	.	2.r	.	2.r	.	4d/	4b-\	4b-\	4dd\
4r	4r	.	4r	.	.	.	.	.	4r	4r	4r	4r
4r	4r	.	4r	.	.	.	.	.	4r	4r	4r	4r
=17	=17	=17	=17	=17	=17	=17	=17	=17	=17	=17	=17	=17
!	!	!	!LO:TX:t=P:problem=nadmiarowy takt	!	!	!	!	!	!	!	!	!
!	!	!	!LO:TX:t=1	!	!	!	!	!	!	!	!	!
2.ryy	2.ryy	.	2.r	.	2.ryy	.	2.ryy	.	2.ryy	2.ryy	2.ryy	2.ryy
=18	=18	=18	=18	=18	=18	=18	=18	=18	=18	=18	=18	=18
!	!	!	!	!	!	!	!	!	!	!LO:TX:t=7	!	!
!	!	!	!	!LO:DY:a	!	!	!	!	!	!	!	!
!LO:LB:g=original	!	!LO:DY:a	!	!	!	!	!	!	!	!	!	!
8F\L	4d/	p	4f/	p	(4d\	Et	(4ff\	Et	2.r	2.r	4dd\	4ff\
8F\	.	.	.	.	.	.	.	.	.	.	.	.
8F\	4c/	.	4en/	.	4c\)	.	4een\)	.	.	.	4cc\	4eeX\
8F\	.	.	.	.	.	.	.	.	.	.	.	.
8F\	4B-/	.	4d/	.	4B-\	in	4dd\	in	.	.	4b-\	4dd\
8F\J	.	.	.	.	.	.	.	.	.	.	.	.
=19	=19	=19	=19	=19	=19	=19	=19	=19	=19	=19	=19	=19
8F\L	4B-/	.	4d/	.	(4B-\	ter-	(4dd\	ter-	2.r	2.r	4b-\	4dd\
8F\	.	.	.	.	.	.	.	.	.	.	.	.
8F\	4A/	.	4c/	.	4A\)	.	4cc\)	.	.	.	4a\	4cc\
8F\	.	.	.	.	.	.	.	.	.	.	.	.
8F\	4G/	.	4en/	.	4G\	-ra	4b-\	-ra	.	.	4g/	4b-\
8F\J	.	.	.	.	.	.	.	.	.	.	.	.
=20	=20	=20	=20	=20	=20	=20	=20	=20	=20	=20	=20	=20
!	!	!	!LO:LB:g=original	!	!	!	!	!	!	!	!	!
8F\L	4A/	f	4f/	f	4F\	pax	4a\	pax	2.r	2.r	4f/	4a\
8F\	.	.	.	.	.	.	.	.	.	.	.	.
8F\	4b-\	.	4dd\	.	4r	.	4r	.	.	.	4r	4r
8F\	.	.	.	.	.	.	.	.	.	.	.	.
8F\	4a\	.	4cc\	.	4r	.	4r	.	.	.	4r	4r
8F\J	.	.	.	.	.	.	.	.	.	.	.	.
=21	=21	=21	=21	=21	=21	=21	=21	=21	=21	=21	=21	=21
8F\L	2a\	.	2cc\	.	2.r	.	2.r	.	2.r	2.r	4r	4r
8F\	.	.	.	.	.	.	.	.	.	.	.	.
8F\	.	.	.	.	.	.	.	.	.	.	4r	4r
8F\	.	.	.	.	.	.	.	.	.	.	.	.
8F\	4r	.	4r	.	.	.	.	.	.	.	4a\	4cc\
8F\J	.	.	.	.	.	.	.	.	.	.	.	.
=22	=22	=22	=22	=22	=22	=22	=22	=22	=22	=22	=22	=22
!	!	!LO:DY:a	!	!	!	!	!	!	!	!	!	!
8F\L	4d/	p	4f/	p	(4d\	pax	(4ff\	pax	2.r	2.r	4dd\	4ff\
8F\	.	.	.	.	.	.	.	.	.	.	.	.
8F\	4c/	.	4en/	.	4c\)	.	4een\)	.	.	.	4cc\	4eeX\
8F\	.	.	.	.	.	.	.	.	.	.	.	.
8F\	4B-/	.	4d/	.	4B-\	ho-	4dd\	ho-	.	.	4b-\	4dd\
8F\J	.	.	.	.	.	.	.	.	.	.	.	.
=23	=23	=23	=23	=23	=23	=23	=23	=23	=23	=23	=23	=23
!	!	!	!	!	!LO:LB:g=original	!	!	!	!	!	!	!
8F\L	4B-/	.	4d/	.	(4B-\	-mi-	(4dd\	-mi-	2.r	2.r	4b-\	4dd\
8F\	.	.	.	.	.	.	.	.	.	.	.	.
8F\	4A/	.	4c/	.	4A\)	.	4cc\)	.	.	.	4a\	4cc\
8F\	.	.	.	.	.	.	.	.	.	.	.	.
8F\	4G/	.	4en/	.	4G\	-ni-	4b-\	-ni-	.	.	4g\	4b-\
8F\J	.	.	.	.	.	.	.	.	.	.	.	.
=24	=24	=24	=24	=24	=24	=24	=24	=24	=24	=24	=24	=24
!	!	!	!	!	!	!	!	!	!LO:N:vis=1	!LO:N:vis=1	!	!
8F\L	4A/	f	4f/	f	4F\	-bus	4a\	-bus	2.r	2.r	4f/	4a\
8F\	.	.	.	.	.	.	.	.	.	.	.	.
8F\	4b-\	.	4dd\	.	4r	.	4r	.	.	.	4r	4r
8F\	.	.	.	.	.	.	.	.	.	.	.	.
8F\	4a\	.	4cc\	.	4r	.	4r	.	.	.	4r	4r
8F\J	.	.	.	.	.	.	.	.	.	.	.	.
=25	=25	=25	=25||;;	=25	=25	=25	=25	=25	=25||;;	=25||;;	=25	=25
!	!	!	!	!	!LO:N:vis=1	!	!LO:N:vis=1	!	!LO:N:vis=1	!LO:N:vis=1	!	!
!	!LO:LB:g=original	!	!	!	!	!	!	!	!	!	!	!
8F\L	2a\	.	2cc\	.	2.r	.	2.r	.	2.r	2.r	4r	4r
8F\	.	.	.	.	.	.	.	.	.	.	.	.
8F\	.	.	.	.	.	.	.	.	.	.	4r	4r
8F\	.	.	.	.	.	.	.	.	.	.	.	.
8F\	4r	.	4r	.	.	.	.	.	.	.	4a\	4cc\
8F\J	.	.	.	.	.	.	.	.	.	.	.	.
=26	=26	=26	=26	=26	=26	=26	=26	=26	=26	=26	=26	=26
*	*tremolo	*	*	*	*	*	*	*	*	*	*	*
!	!	!	!	!LO:DY:b:t=f	!	!	!	!	!	!	!	!
!	!	!LO:DY:a	!	!	!	!	!	!	!	!	!	!
8En\L	16g 16c/LL	f	8b-\L	f	2.G\	bo-	2.b-\	bo-	2.cc\	2.cc\	2.b-\	2.eeX\
.	16g 16c/	.	.	.	.	.	.	.	.	.	.	.
8En\	16g 16c/	.	8gg\	.	.	.	.	.	.	.	.	.
.	16g 16c/	.	.	.	.	.	.	.	.	.	.	.
8En\	16g 16c/	.	8ee-\	.	.	.	.	.	.	.	.	.
.	16g 16c/	.	.	.	.	.	.	.	.	.	.	.
8En\	16g 16c/	.	8cc\	.	.	.	.	.	.	.	.	.
.	16g 16c/	.	.	.	.	.	.	.	.	.	.	.
8En\	16g 16c/	.	8b-\	.	.	.	.	.	.	.	.	.
.	16g 16c/	.	.	.	.	.	.	.	.	.	.	.
8En\J	16g 16c/	.	8g\J	.	.	.	.	.	.	.	.	.
.	16g 16c/JJ	.	.	.	.	.	.	.	.	.	.	.
=27	=27	=27	=27	=27	=27	=27	=27	=27	=27	=27	=27	=27
8F\L	16a 16f/LL	.	8a\L	.	2.F\	-ne	2.a\	-ne	2.f/	2.cc\	2.a\	2.ff\
.	16a 16f/	.	.	.	.	.	.	.	.	.	.	.
8F\	16a 16f/	.	8aa\	.	.	.	.	.	.	.	.	.
.	16a 16f/	.	.	.	.	.	.	.	.	.	.	.
8F\	16a 16f/	.	8ff\	.	.	.	.	.	.	.	.	.
.	16a 16f/	.	.	.	.	.	.	.	.	.	.	.
8F\	16a 16f/	.	8cc\	.	.	.	.	.	.	.	.	.
.	16a 16f/	.	.	.	.	.	.	.	.	.	.	.
8F\	16a 16f/	.	8a\	.	.	.	.	.	.	.	.	.
.	16a 16f/	.	.	.	.	.	.	.	.	.	.	.
8F\J	16a 16f/	.	8f\J	.	.	.	.	.	.	.	.	.
.	16a 16f/JJ	.	.	.	.	.	.	.	.	.	.	.
=28	=28	=28	=28	=28	=28	=28	=28	=28	=28	=28	=28	=28
*	*	*	*	*	*	*ij	*	*	*	*	*tremolo	*
!	!	!	!	!	!	!	!	!	!	!	!LO:LB:g=original	!
!	!	!	!	!	!	!	!	!	!	!	!LO:TX:t=P:problem=kreska tremolo przypadkowa (?)	!
!	!	!	!	!	!	!	!LO:LB:g=original	!	!	!	!	!
8G\L	16g 16c/LL	.	8b-\L	.	2.B-\	bo-	2.een\	bo-	2.cc\	2.cc\	8eeX\LL	2.gg\
.	16g 16c/	.	.	.	.	.	.	.	.	.	.	.
8G\	16g 16c/	.	8bb-\	.	.	.	.	.	.	.	8eeX\	.
.	16g 16c/	.	.	.	.	.	.	.	.	.	.	.
8G\	16g 16c/	.	8gg\	.	.	.	.	.	.	.	8eeX\	.
.	16g 16c/	.	.	.	.	.	.	.	.	.	.	.
8G\	16g 16c/	.	8ee-\	.	.	.	.	.	.	.	8eeX\	.
.	16g 16c/	.	.	.	.	.	.	.	.	.	.	.
8G\	16g 16c/	.	8cc\	.	.	.	.	.	.	.	8eeX\	.
.	16g 16c/	.	.	.	.	.	.	.	.	.	.	.
8G\J	16g 16c/	.	8b-\J	.	.	.	.	.	.	.	8eeX\JJ	.
.	16g 16c/JJ	.	.	.	.	.	.	.	.	.	.	.
*	*	*	*	*	*	*	*	*	*	*	*Xtremolo	*
=29	=29	=29	=29	=29	=29	=29	=29	=29	=29	=29	=29	=29
8A\L	16a 16f/LL	.	8cc\L	.	2.A\	-ne	2.ff\	-ne	2.f/	2.cc\	2.ff\	2.aa\
*	*	*	*	*	*	*Xij	*	*	*	*	*	*
.	16a 16f/	.	.	.	.	.	.	.	.	.	.	.
8A\	16a 16f/	.	8ccc\	.	.	.	.	.	.	.	.	.
.	16a 16f/	.	.	.	.	.	.	.	.	.	.	.
8A\	16a 16f/	.	8aa\	.	.	.	.	.	.	.	.	.
.	16a 16f/	.	.	.	.	.	.	.	.	.	.	.
8A\	16a 16f/	.	8gg\	.	.	.	.	.	.	.	.	.
.	16a 16f/	.	.	.	.	.	.	.	.	.	.	.
8A\	16a 16f/	.	8ee-X\	.	.	.	.	.	.	.	.	.
.	16a 16f/	.	.	.	.	.	.	.	.	.	.	.
8A\J	16a 16f/	.	8cc\J	.	.	.	.	.	.	.	.	.
.	16a 16f/JJ	.	.	.	.	.	.	.	.	.	.	.
=30	=30	=30	=30	=30	=30	=30	=30	=30	=30	=30	=30	=30
*	*	*	*tremolo	*	*	*	*	*	*	*	*	*
!	!	!	!	!	!	!	!	!	!	!	!	!LO:LB:g=original
8B-\L	16b-\LL	.	16dd\LL	.	2.r	.	(4dd\	bo-	2cc\	2cc\	2b-\	2dd\
.	16b-\	.	16dd\	.	.	.	.	.	.	.	.	.
8B-\	16b-\	.	16dd\	.	.	.	.	.	.	.	.	.
.	16b-\JJ	.	16dd\JJ	.	.	.	.	.	.	.	.	.
8B-\	16g/LL	.	16ee-\LL	.	.	.	4ee-\)	.	.	.	.	.
.	16g/	.	16ee-\	.	.	.	.	.	.	.	.	.
8B-\	16g/	.	16ee-\	.	.	.	.	.	.	.	.	.
.	16g/JJ	.	16ee-\JJ	.	.	.	.	.	.	.	.	.
8B-\	16a/LL	.	16ff#X\LL	.	.	.	4ff\	-ne	4r	4r	4r	4r
.	16a/	.	16ff#X\	.	.	.	.	.	.	.	.	.
8B-\J	16a/	.	16ff#X\	.	.	.	.	.	.	.	.	.
.	16a/JJ	.	16ff#X\JJ	.	.	.	.	.	.	.	.	.
=31	=31	=31	=31	=31	=31	=31	=31	=31	=31	=31	=31	=31
8B-\L	16b-\LL	.	16gg\LL	.	2.r	.	(4gg\	vo-	2.r	2.r	2.r	2.r
.	16b-\	.	16gg\	.	.	.	.	.	.	.	.	.
8B-\	16b-\	.	16gg\	.	.	.	.	.	.	.	.	.
.	16b-\JJ	.	16gg\JJ	.	.	.	.	.	.	.	.	.
8B-\	16cc\LL	.	16aa\LL	.	.	.	4aa\)	.	.	.	.	.
.	16cc\	.	16aa\	.	.	.	.	.	.	.	.	.
8B-\	16cc\	.	16aa\	.	.	.	.	.	.	.	.	.
.	16cc\JJ	.	16aa\JJ	.	.	.	.	.	.	.	.	.
8B-\	16dd\LL	.	16bb-\LL	.	.	.	4bb-\	-lon-	.	.	.	.
.	16dd\	.	16bb-\	.	.	.	.	.	.	.	.	.
8B-\J	16dd\	.	16bb-\	.	.	.	.	.	.	.	.	.
.	16dd\JJ	.	16bb-\JJ	.	.	.	.	.	.	.	.	.
=32	=32	=32	=32	=32	=32	=32	=32	=32	=32	=32	=32	=32
8c\L	16cc\LL	.	16ff 16a\LL	.	2.c\	-ta-	(2.aa\	-ta-	2.f/	2.cc\	2.ff\	2.aa\
.	16cc\	.	16ff 16a\	.	.	.	.	.	.	.	.	.
8c\	16cc\	.	16ff 16a\	.	.	.	.	.	.	.	.	.
.	16cc\	.	16ff 16a\	.	.	.	.	.	.	.	.	.
8c\	16cc\	.	16ff 16a\	.	.	.	.	.	.	.	.	.
.	16cc\	.	16ff 16a\	.	.	.	.	.	.	.	.	.
8c\	16cc\	.	16ff 16a\	.	.	.	.	.	.	.	.	.
.	16cc\	.	16ff 16a\	.	.	.	.	.	.	.	.	.
8c\	16cc\	.	16ff 16a\	.	.	.	.	.	.	.	.	.
.	16cc\	.	16ff 16a\	.	.	.	.	.	.	.	.	.
8c\J	16cc\	.	16ff 16a\	.	.	.	.	.	.	.	.	.
.	16cc\JJ	.	16ff 16a\JJ	.	.	.	.	.	.	.	.	.
=33	=33	=33	=33	=33	=33	=33	=33	=33	=33	=33	=33	=33
8C/L	16cc\LL	.	16ee- 16b-\LL	.	2.C/	.	2.gg\)	.	2.cc\	2.cc\	2.cc\	2.gg\
.	16cc\	.	16ee- 16b-\	.	.	.	.	.	.	.	.	.
8C/	16cc\	.	16ee- 16b-\	.	.	.	.	.	.	.	.	.
.	16cc\	.	16ee- 16b-\	.	.	.	.	.	.	.	.	.
8C/	16cc\	.	16ee- 16b-\	.	.	.	.	.	.	.	.	.
.	16cc\	.	16ee- 16b-\	.	.	.	.	.	.	.	.	.
8C/	16cc\	.	16ee- 16b-\	.	.	.	.	.	.	.	.	.
.	16cc\	.	16ee- 16b-\	.	.	.	.	.	.	.	.	.
8C/	16cc\	.	16ee- 16b-\	.	.	.	.	.	.	.	.	.
.	16cc\	.	16ee- 16b-\	.	.	.	.	.	.	.	.	.
8C/J	16cc\	.	16ee- 16b-\	.	.	.	.	.	.	.	.	.
.	16cc\JJ	.	16ee- 16b-\JJ	.	.	.	.	.	.	.	.	.
*	*Xtremolo	*	*Xtremolo	*	*	*	*	*	*	*	*	*
=34	=34	=34	=34	=34	=34	=34	=34	=34	=34	=34	=34	=34
4F\	4a 4f/	.	4ff 4a\	.	4F\	-tis	4ff\	-tis	4f/	4cc\	4a\	4ff\
4r	4r	.	4r	.	4r	.	4r	.	4r	4r	4f/	4a\
4r	4G/	.	4B-/	.	4r	.	4r	.	4r	4r	4g/	4b-\
=35	=35	=35	=35	=35	=35	=35	=35	=35	=35	=35	=35	=35
2.r	4A/	.	4c/	p	2.r	.	2.r	.	2.r	2.r	4a/	4cc\
.	4B-/	.	4d/	.	.	.	.	.	.	.	4b-\	4dd\
.	4G/	.	4en/	.	.	.	.	.	.	.	4g/	4eeX\
=36	=36	=36	=36	=36	=36	=36	=36	=36	=36	=36	=36	=36
!LO:LB:g=original	!	!	!	!	!	!	!	!	!	!	!	!
4F\	4A/	.	4f/	.	(4d\	Et	(4ff\	Et	2.r	2.r	4a\	4ff\
!	!	!	!LO:SIC:v:s=4en/	!	!	!	!	!	!	!	!	!
4r	4c/	.	4e-/	.	4c\)	.	4een\)	.	.	.	4cc\	4eeX\
4r	4B-/	.	4d/	.	4B-\	in	4dd\	in	.	.	4b-\	4dd\
=37	=37	=37	=37	=37	=37	=37	=37	=37	=37	=37	=37	=37
2.r	4B-/	.	4d/	.	(4B-\	ter-	(4dd\	ter-	2.r	2.r	4b-\	4dd\
.	4A/	.	4c/	.	4A\)	.	4cc\)	.	.	.	4a\	4cc\
.	4G/	.	4en/	.	4G\	-ra	4b-\	-ra	.	.	4g\	4b-\
=38	=38	=38	=38	=38	=38	=38	=38	=38	=38	=38	=38	=38
!	!	!	!	!	!LO:LB:g=original	!	!	!	!	!	!	!
!	!	!LO:DY:a	!	!	!	!	!	!	!	!	!	!
4F\	4A/	f	4f/	.	4F\	pax	4a\	pax	2.r	2.r	4f/	4a\
4r	4b-\	.	4dd\	f	4r	.	4r	.	.	.	4r	4r
4r	4a\	.	4cc\	.	4r	.	4r	.	.	.	4r	4r
=39	=39	=39	=39	=39	=39	=39	=39	=39	=39	=39	=39	=39
!	!LO:LB:g=original	!	!	!	!	!	!	!	!	!	!	!
2.r	2a\	.	2cc\	.	2.r	.	2.r	.	2.r	2.r	4r	4r
.	.	.	.	.	.	.	.	.	.	.	4r	4r
.	4r	.	4r	.	.	.	.	.	.	.	4a\	4cc\
=40	=40	=40	=40	=40	=40	=40	=40	=40	=40	=40	=40	=40
*	*	*	*	*	*	*ij	*	*	*	*	*	*
4F\	4d/	.	4f/	.	4d\	Et	(4ff\	Et	2.r	2.r	4dd\	4ff\
4r	4c/	.	4en/	.	4c\	.	4ee-\)	.	.	.	4cc\	4eeX\
4r	4B-/	.	4d/	.	4B-\	in	4dd\	in	.	.	4b-\	4dd\
=41	=41	=41	=41	=41	=41	=41	=41	=41	=41	=41	=41	=41
2.r	4B-/	.	4d/	.	4B-\	ter-	(4dd\	ter-	2.r	2.r	4b-\	4dd\
.	4A/	.	4c/	.	4A\	.	4cc\)	.	.	.	4a\	4cc\
.	4G/	.	4en/	.	4G\	-ra	4b-\	-ra	.	.	4g\	4b-\
=42	=42	=42	=42	=42	=42	=42	=42	=42	=42	=42	=42	=42
!	!	!	!	!	!	!	!	!	!	!	!LO:TX:t=P:problem	!
4F\	4A/	.	4f 4A/	.	4F\	pax	4a\	pax	2.r	2.r	4f\	4a\
*	*	*	*	*	*	*Xij	*	*	*	*	*	*
4r	4r	.	4r	.	4r	.	4r	.	.	.	4cc\	4aa\
4r	4r	.	4r	.	4r	.	4r	.	.	.	4b-\	4gg\
=43	=43	=43	=43	=43	=43	=43	=43	=43	=43	=43	=43	=43
!	!	!	!	!	!	!	!LO:LB:g=original	!	!	!	!	!
!	!	!	!LO:LB:g=original	!	!	!	!	!	!	!	!	!
4F\	4a 4f/	.	4ff 4a\	.	4F\	pax	4ff\	pax	2.r	2.r	4a\	4ff\
4r	4r	.	4r	.	4r	.	4r	.	.	.	4cc\	4aa\
4r	4r	.	4r	.	4r	.	4r	.	.	.	4b-\	4gg\
=44	=44	=44	=44	=44	=44	=44	=44	=44	=44	=44	=44	=44
*	*	*	*	*	*	*ij	*	*	*	*	*	*
4F\	4a 4f/	.	4ff 4a\	.	4F\	pax	4ff\	pax	2.r	2.r	4a\	4gg\
*	*	*	*	*	*	*Xij	*	*	*	*	*	*
4r	4a/	.	4cc\	.	4r	.	4r	.	.	.	4a\	4cc\
4r	4b-/	.	4dd\	.	4r	.	4r	.	.	.	4b-\	4dd\
=45	=45	=45	=45	=45	=45	=45	=45	=45	=45	=45	=45	=45
2.r	4g/	.	4ee-\	.	2.r	.	2.r	.	2.r	2.r	4cc\	4ee-X\
.	4f/	.	4dd\	.	.	.	.	.	.	.	4b-\	4dd\
.	4e-X/	.	4cc\	.	.	.	.	.	.	.	4a\	4cc\
=46	=46	=46	=46	=46	=46	=46	=46	=46	=46	=46	=46	=46
!	!	!	!LO:TX:t=P:problem=fragment zapisany powtórką (segno)	!	!	!	!	!	!LO:TX:t=P:problem=fragment zapisany powtórką (segno)	!LO:TX:t=P:problem=fragment zapisany powtórką (segno)	!	!
!	!	!	!	!	!	!	!	!	!	!	!	!LO:LB:g=original
8B-\L	4.d/	.	4.b-\	.	2D/	Quo-	2b-\	Quo-	4.d/	4.b-\	4.d/	4.b-\
8B-\	.	.	.	.	.	.	.	.	.	.	.	.
8B-\	.	.	.	.	.	.	.	.	.	.	.	.
8B-\	8e-/L	.	8cc\L	.	.	.	.	.	8f/L	8cc\L	8e-/L	8cc\L
8B-\	8d/	.	8b-\	.	4D/	-ni-	4b-\	-ni-	8d/	8b-\	8d/	8b-\
8B-\J	8e-/J	.	8cc\J	.	.	.	.	.	8f/J	8cc\J	8e-/J	8cc\J
=47	=47	=47	=47	=47	=47	=47	=47	=47	=47	=47	=47	=47
8B-\L	4d/	.	4b-\	.	4D/	-am	4b-\	-am	4d/	4b-\	4d/	4b-\
8B-\	.	.	.	.	.	.	.	.	.	.	.	.
!	!LO:TX:t=P:problem=mixed beam	!	!	!	!	!	!	!	!	!	!	!
8B-\	8e-/L	.	8cc\L	.	4r	.	4r	.	4r	4r	4r	4r
8B-\	8d/	.	8b-\	.	.	.	.	.	.	.	.	.
8B-\	8cc\	.	8ee-\	.	4r	.	4r	.	4r	4r	4r	4r
8B-\J	8b-\J	.	8dd\J	.	.	.	.	.	.	.	.	.
=48	=48	=48	=48	=48	=48	=48	=48	=48	=48	=48	=48	=48
*	*	*	*	*	*	*ij	*	*ij	*	*	*	*
8B-\L	4.b-\	.	4.dd\	.	2B-\	Quo-	2dd\	Quo-	4.b-\	4.dd\	4.b-\	4.dd\
8B-\	.	.	.	.	.	.	.	.	.	.	.	.
8B-\	.	.	.	.	.	.	.	.	.	.	.	.
8B-\	8cc\L	.	8ee-\L	.	.	.	.	.	8cc\L	8ee-\L	8cc\L	8ee-\L
8B-\	8b-\	.	8dd\	.	4B-\	-ni-	4dd\	-ni-	8b-\	8dd\	8b-\	8dd\
8B-\J	8cc\J	.	8ee-\J	.	.	.	.	.	8cc\J	8ee-\J	8cc\J	8ee-\J
=49	=49	=49	=49	=49	=49	=49	=49	=49	=49	=49	=49	=49
8B-\L	4b-\	.	4dd\	.	4B-\	-am	4dd\	-am	4b-\	4dd\	4b-\	4dd\
*	*	*	*	*	*	*Xij	*	*Xij	*	*	*	*
8B-\	.	.	.	.	.	.	.	.	.	.	.	.
8B-\	8cc\L	.	8ee-\L	.	4r	.	4r	.	4r	4r	4r	4r
8B-\	8b-\	.	8dd\	.	.	.	.	.	.	.	.	.
8B-\	8ee-\	.	8gg\	.	4r	.	4r	.	4r	4r	4r	4r
8B-\J	8dd\J	.	8ff\J	.	.	.	.	.	.	.	.	.
=50	=50	=50	=50	=50	=50	=50	=50	=50	=50	=50	=50	=50
!	!	!	!	!	!LO:LB:g=original	!	!	!	!	!	!	!
!	!LO:LB:g=original	!	!	!	!	!	!	!	!	!	!	!
8B-\L	4.dd\	.	4.ff\	.	2d\	Quo-	2ff\	Quo-	4.dd\	4.ff\	4.dd\	4.ff\
8B-\	.	.	.	.	.	.	.	.	.	.	.	.
8B-\	.	.	.	.	.	.	.	.	.	.	.	.
8B-\	8ee-\L	.	8gg\L	.	.	.	.	.	8ee-\L	8gg\L	8ee-\L	8gg\L
8B-\	8dd\	.	8ff\	.	4d\	-ni-	4ff\	-ni-	8dd\	8ff\	8dd\	8ff\
8B-\J	8ee-\J	.	8gg\J	.	.	.	.	.	8ee-\J	8gg\J	8ee-\J	8gg\J
=51	=51	=51	=51	=51	=51	=51	=51	=51	=51	=51	=51	=51
8B-\L	4dd\	.	4ff\	.	4d\	-am	4ff\	-am	4dd\	4ff\	4dd\	4ff\
8B-\	.	.	.	.	.	.	.	.	.	.	.	.
8B-\	8dd\L	.	8bb-\L	.	4d\	tu	8bb-\L	tu	4r	4r	4r	4r
8B-\	8dd\	.	8ff\	.	.	.	8ff\J	.	.	.	.	.
8B-\	8b-\	.	8dd\	.	8B-\	so-	8dd\	so-	4r	4r	4r	4r
8B-\J	8dd\J	.	8gg\J	.	8e-\	-lus	8gg\	-lus	.	.	.	.
=52	=52	=52	=52	=52	=52	=52	=52	=52	=52	=52	=52	=52
*	*tremolo	*	*	*	*	*	*	*	*	*	*	*
8B-\L	16dd 16f\LL	.	8ff\L	.	2.d\	San-	(2.ff\	San-	2.d/	2.b-\	2.dd\	2.ff\
.	16dd 16f\	.	.	.	.	.	.	.	.	.	.	.
8B-\	16dd 16f\	.	8bb-\	.	.	.	.	.	.	.	.	.
.	16dd 16f\	.	.	.	.	.	.	.	.	.	.	.
8B-\	16dd 16f\	.	8ddd\	.	.	.	.	.	.	.	.	.
.	16dd 16f\	.	.	.	.	.	.	.	.	.	.	.
8B-\	16dd 16f\	.	8bb-\	.	.	.	.	.	.	.	.	.
.	16dd 16f\	.	.	.	.	.	.	.	.	.	.	.
8B-\	16dd 16f\	.	8ff\	.	.	.	.	.	.	.	.	.
.	16dd 16f\	.	.	.	.	.	.	.	.	.	.	.
8B-\J	16dd 16f\	.	8dd\J	.	.	.	.	.	.	.	.	.
.	16dd 16f\JJ	.	.	.	.	.	.	.	.	.	.	.
=53	=53	=53	=53	=53	=53	=53	=53	=53	=53	=53	=53	=53
!LO:LB:g=original	!	!	!	!	!	!	!	!	!	!	!	!
8F\L	16cc 16f\LL	.	8ee-\L	.	2.c\	.	2.ee-\	.	2.f/	2.cc\	2.cc\	2.ee-\
.	16cc 16f\	.	.	.	.	.	.	.	.	.	.	.
8F\	16cc 16f\	.	8aa\	.	.	.	.	.	.	.	.	.
.	16cc 16f\	.	.	.	.	.	.	.	.	.	.	.
8F\	16cc 16f\	.	8ccc\	.	.	.	.	.	.	.	.	.
.	16cc 16f\	.	.	.	.	.	.	.	.	.	.	.
8F\	16cc 16f\	.	8aa\	.	.	.	.	.	.	.	.	.
.	16cc 16f\	.	.	.	.	.	.	.	.	.	.	.
8F\	16cc 16f\	.	8ff\	.	.	.	.	.	.	.	.	.
.	16cc 16f\	.	.	.	.	.	.	.	.	.	.	.
8F\J	16cc 16f\	.	8ee-\J	.	.	.	.	.	.	.	.	.
.	16cc 16f\JJ	.	.	.	.	.	.	.	.	.	.	.
*	*Xtremolo	*	*	*	*	*	*	*	*	*	*	*
=54	=54	=54	=54	=54	=54	=54	=54	=54	=54	=54	=54	=54
!	!	!	!	!	!	!	!	!	!	!	!LO:TX:t=P:problem	!
!	!	!	!LO:LB:g=original	!	!	!	!	!	!	!	!	!
!	!	!	!LO:TX:t=P:problem=mixed beam	!	!	!	!	!	!	!	!	!
4B-\	8b-/L	.	8dd\L	.	4B-\	-ctus	4dd\)	-ctus	4b-\	4dd\	4b-\	4dd\
.	8d/	.	8f/	.	.	.	.	.	.	.	.	.
4r	8d/	.	8g/	.	4r	.	4r	.	4r	4r	4r	4r
.	8e-/	.	8a/	.	.	.	.	.	.	.	.	.
4r	8c/	.	8b-/	.	4r	.	4r	.	4r	4r	4r	4r
.	8d/J	.	8cc/J	.	.	.	.	.	.	.	.	.
=55	=55	=55	=55	=55	=55	=55	=55	=55	=55	=55	=55	=55
!	!	!	!	!	!	!	!	!	!	!LO:TX:t=1	!	!
2.r	8b-\L	.	8dd\L	.	2.r	.	2.r	.	2.r	2.r	2.r	2.r
.	8f\	.	8a\	.	.	.	.	.	.	.	.	.
.	8g\	.	8b-\	.	.	.	.	.	.	.	.	.
.	8a\	.	8cc\	.	.	.	.	.	.	.	.	.
.	8b-\	.	8dd\	.	.	.	.	.	.	.	.	.
.	8cc\J	.	8ee-\J	.	.	.	.	.	.	.	.	.
=56	=56	=56	=56	=56	=56	=56	=56	=56	=56	=56	=56	=56
!	!	!	!	!	!	!	!LO:LB:g=original	!	!	!	!	!
8B-\L	4.dd\	.	4.ff\	.	2d\	Quo-	2ff\	Quo-	4.dd\	4.ff\	4.dd\	4.ff\
8B-\	.	.	.	.	.	.	.	.	.	.	.	.
8B-\	.	.	.	.	.	.	.	.	.	.	.	.
8B-\	8ee-\L	.	8gg\L	.	.	.	.	.	8ee-\L	8gg\L	8ee-\L	8gg\L
8B-\	8dd\	.	8ff\	.	4d\	-ni-	4ff\	-ni-	8dd\	8ff\	8dd\	8ff\
8B-\J	8ee-\J	.	8gg\J	.	.	.	.	.	8ee-\J	8gg\J	8ee-\J	8gg\J
=57	=57	=57	=57	=57	=57	=57	=57	=57	=57	=57	=57	=57
!	!	!	!	!	!	!	!	!	!LO:LB:g=original	!	!	!
8B-\L	4dd\	.	4ff\	.	4d\	-am	4ff\	-am	4dd\	4ff\	4dd\	4ff\
8B-\	.	.	.	.	.	.	.	.	.	.	.	.
8B-\	8dd\L	.	8bb-\L	.	8d\	tu-	8bb-\	tu	4r	4r	4r	4r
8B-\	8ee-\	.	8ff\	.	8d\	-so-	8ff\	so-	.	.	.	.
8B-\	8b-\	.	8dd\	.	8B-\	-lus	8dd\	-lus	4r	4r	4r	4r
8B-\J	8ee-\J	.	8gg\J	.	8e-\	al-	8bb-\	al-	.	.	.	.
=58	=58	=58	=58	=58	=58	=58	=58	=58	=58	=58	=58	=58
*	*tremolo	*	*	*	*	*	*	*	*	*	*	*
8B-\L	16dd 16f\LL	.	8ff\L	.	2.d\	-tis-	(2.ff\	-tis-	2.d/	2.b-\	2.dd\	2.ff\
.	16dd 16f\	.	.	.	.	.	.	.	.	.	.	.
8B-\	16dd 16f\	.	8bb-\	.	.	.	.	.	.	.	.	.
.	16dd 16f\	.	.	.	.	.	.	.	.	.	.	.
8B-\	16dd 16f\	.	8ddd\	.	.	.	.	.	.	.	.	.
.	16dd 16f\	.	.	.	.	.	.	.	.	.	.	.
8B-\	16dd 16f\	.	8bb-\	.	.	.	.	.	.	.	.	.
.	16dd 16f\	.	.	.	.	.	.	.	.	.	.	.
8B-\	16dd 16f\	.	8ff\	.	.	.	.	.	.	.	.	.
.	16dd 16f\	.	.	.	.	.	.	.	.	.	.	.
8B-\J	16dd 16f\	.	8dd\J	.	.	.	.	.	.	.	.	.
.	16dd 16f\JJ	.	.	.	.	.	.	.	.	.	.	.
=59	=59	=59	=59	=59	=59	=59	=59	=59	=59	=59	=59	=59
!	!	!	!	!	!	!	!	!	!	!LO:LB:g=original	!	!
8F\L	16cc 16f\LL	.	8ee-\L	.	2c\	-si-	2ee-\)	.	2.f/	2.cc\	2.cc\	2.ee-\
.	16cc 16f\	.	.	.	.	.	.	.	.	.	.	.
8F\	16cc 16f\	.	8aa\	.	.	.	.	.	.	.	.	.
.	16cc 16f\	.	.	.	.	.	.	.	.	.	.	.
8F\	16cc 16f\	.	8ccc\	.	.	.	.	.	.	.	.	.
.	16cc 16f\	.	.	.	.	.	.	.	.	.	.	.
8F\	16cc 16f\	.	8aa\	.	.	.	.	.	.	.	.	.
.	16cc 16f\	.	.	.	.	.	.	.	.	.	.	.
8F\	16cc 16f\	.	8ff\	.	4B-\	.	4ee-\	-si-	.	.	.	.
.	16cc 16f\	.	.	.	.	.	.	.	.	.	.	.
8F\J	16cc 16f\	.	8ee-\J	.	.	.	.	.	.	.	.	.
.	16cc 16f\JJ	.	.	.	.	.	.	.	.	.	.	.
*	*Xtremolo	*	*	*	*	*	*	*	*	*	*	*
=60	=60	=60	=60	=60	=60	=60	=60	=60	=60	=60	=60	=60
!LO:TX:t=P:problem=brak taktu	!	!	!	!	!LO:LB:g=original	!	!	!	!	!	!	!
2.ryy	4b- 4d/	.	4dd\	.	4B-\	-mus	4dd\	-mus	4dd\	4dd\	4b-\	4dd\
.	4d 4B-/	.	4b- 4d/	.	4r	.	4r	.	4d/	4b-\	4b-\	4dd\
.	4d 4B-/	.	4b- 4d/	.	4r	.	4r	.	4d/	4b-\	4b-\	4dd\
=61	=61	=61	=61	=61	=61	=61	=61	=61	=61	=61	=61	=61
!	!	!	!	!	!	!	!	!	!	!	!	!LO:LB:g=original
4B-\	4d 4B-/	.	4b- 4d/	.	2.r	.	2.r	.	4d/	4b-\	4b-\	4dd\
4r	4r	.	4r	.	.	.	.	.	4r	4r	4r	4r
4r	4r	.	4r	.	.	.	.	.	4r	4r	4r	4r
=62	=62	=62	=62	=62	=62	=62	=62	=62	=62	=62	=62	=62
!	!LO:TX:t=P:problem=nadliczbowy takt w vl 2	!	!	!	!LO:TX:t=P:problem=nadliczbowy takt w vl 2	!	!LO:TX:t=P:problem=nadliczbowy takt w vl 2	!	!	!	!LO:TX:t=P:problem=nadliczbowy takt w vl 2	!LO:TX:t=P:problem=nadliczbowy takt w vl 2
!	!	!	!LO:TX:t=P:problem=nadliczbowy takt	!	!	!	!	!	!	!	!	!
!	!	!	!LO:TX:t=1	!	!	!	!	!	!LO:TX:t=P:problem=nadliczbowy takt w vl 2	!LO:TX:t=P:problem=nadliczbowy takt w vl 2	!	!
2.r	2.ryy	.	2.r	.	2.ryy	.	2.ryy	.	2.ryy	2.ryy	2.ryy	2.ryy
=63	=63	=63	=63	=63	=63	=63	=63	=63	=63	=63	=63	=63
*tremolo	*	*	*	*	*	*	*	*	*	*	*	*
!	!	!	!	!	!	!	!	!	!	!LO:TX:t=7	!	!
!	!	!LO:DY:a	!	!	!	!	!	!	!	!	!	!
8F\L	4d/	p	4f/	p	(4d\	Je-	(4ff\	Je-	2.r	2.r	4dd\	4ff\
8F\	.	.	.	.	.	.	.	.	.	.	.	.
8F\	4c/	.	4en/	.	4c\)	.	4een\)	.	.	.	4cc\	4eeX\
8F\	.	.	.	.	.	.	.	.	.	.	.	.
8F\	4B-/	.	4d/	.	4B-\	su	4dd\	su	.	.	4b-\	4dd\
8F\J	.	.	.	.	.	.	.	.	.	.	.	.
=64	=64	=64	=64	=64	=64	=64	=64	=64	=64	=64	=64	=64
*	*	*	*	*	*	*ij	*	*	*	*	*	*
8F\L	4B-/	.	4d/	.	(4B-\	Je-	(4dd\	Je-	2.r	2.r	4b-\	4dd\
8F\	.	.	.	.	.	.	.	.	.	.	.	.
8F\	4A/	.	4c/	.	4A\)	.	4cc\)	.	.	.	4a\	4cc\
8F\	.	.	.	.	.	.	.	.	.	.	.	.
8F\	4G/	.	4en/	.	4G\	-su	4b-\	-su	.	.	4g\	4b-\
*	*	*	*	*	*	*Xij	*	*	*	*	*	*
8F\J	.	.	.	.	.	.	.	.	.	.	.	.
=65	=65	=65	=65	=65	=65	=65	=65	=65	=65	=65	=65	=65
!	!	!	!LO:LB:g=original	!	!	!	!	!	!	!	!	!
8F\L	4A/	f	4f/	f	4G\	Chri-	4b-\	Chri-	2.r	2.r	4f/	4a\
8F\	.	.	.	.	.	.	.	.	.	.	.	.
8F\	4b-\	.	4dd\	.	4F\	-ste	4a\	-ste	.	.	4r	4r
8F\	.	.	.	.	.	.	.	.	.	.	.	.
8F\	4a\	.	4cc\	.	4r	.	4r	.	.	.	4r	4r
8F\J	.	.	.	.	.	.	.	.	.	.	.	.
=66	=66	=66	=66	=66	=66	=66	=66	=66	=66	=66	=66	=66
8F\L	2a\	.	2cc\	.	2.r	.	2.r	.	2.r	2.r	4r	4r
8F\	.	.	.	.	.	.	.	.	.	.	.	.
8F\	.	.	.	.	.	.	.	.	.	.	4r	4r
8F\	.	.	.	.	.	.	.	.	.	.	.	.
8F\	4r	.	4r	.	.	.	.	.	.	.	4a\	4cc\
8F\J	.	.	.	.	.	.	.	.	.	.	.	.
=67	=67	=67	=67	=67	=67	=67	=67	=67	=67	=67	=67	=67
!	!	!LO:DY:a:t=p	!	!	!	!	!	!	!	!	!	!
8F\L	4d/	p	4f/	p	(4d\	Je-	(4ff\	Je-	2.r	2.r	4dd\	4ff\
8F\	.	.	.	.	.	.	.	.	.	.	.	.
8F\	4c/	.	4en/	.	4c\)	.	4een\)	.	.	.	4cc\	4eeX\
8F\	.	.	.	.	.	.	.	.	.	.	.	.
8F\	4B-/	.	4d/	.	4B-\	su	4dd\	su	.	.	4b-\	4dd\
8F\J	.	.	.	.	.	.	.	.	.	.	.	.
=68	=68	=68	=68	=68	=68	=68	=68	=68	=68	=68	=68	=68
*	*	*	*	*	*	*ij	*	*	*	*	*	*
8F\L	4B-/	.	4d/	.	(4B-\	Je-	4dd\	Je-	2.r	2.r	4b-\	4dd\
8F\	.	.	.	.	.	.	.	.	.	.	.	.
8F\	4A/	.	4c/	.	4A\)	.	4cc\	.	.	.	4a\	4cc\
8F\	.	.	.	.	.	.	.	.	.	.	.	.
8F\	4G/	.	4en/	.	4G\	-su	4b-\	-su	.	.	4g\	4b-\
*	*	*	*	*	*	*Xij	*	*	*	*	*	*
8F\J	.	.	.	.	.	.	.	.	.	.	.	.
=69	=69	=69	=69	=69	=69	=69	=69	=69	=69	=69	=69	=69
!	!	!	!	!	!	!	!	!	!	!	!LO:LB:g=original	!
!	!	!	!	!	!	!	!	!	!LO:N:vis=1	!LO:N:vis=1	!	!
!	!	!	!	!	!	!	!LO:LB:g=original	!	!	!	!	!
8F\L	4A/	.	4f/	f	4G\	Chri-	4b-\	Chri-	2.r	2.r	4f/	4a\
8F\	.	.	.	.	.	.	.	.	.	.	.	.
8F\	4b-\	.	4dd\	.	4F\	-ste	4a\	-ste	.	.	4r	4r
8F\	.	.	.	.	.	.	.	.	.	.	.	.
8F\	4a\	.	4cc\	.	4r	.	4r	.	.	.	4r	4r
8F\J	.	.	.	.	.	.	.	.	.	.	.	.
=70	=70	=70	=70||;;	=70	=70	=70	=70	=70	=70||;;	=70||;;	=70	=70
!	!	!	!	!	!	!	!	!	!	!	!LO:TX:t=1	!
!	!	!	!	!	!LO:N:vis=1	!	!LO:N:vis=1	!	!	!	!	!LO:N:vis=1
!	!	!	!	!	!	!	!	!	!LO:N:vis=1	!LO:N:vis=1	!	!
!	!	!	!LO:TX:t=P:problem=fragement zapisany po segno	!	!	!	!	!	!LO:TX:t=P:problem=fragement zapisany po segno	!LO:TX:t=P:problem=fragement zapisany po segno	!	!
!	!	!	!	!	!	!	!	!	!	!	!LO:N:vis=1	!
8F\L	4a/	.	4cc\	.	2.r	.	2.r	.	2.r	2.r	2.r	2.r
8F\	.	.	.	.	.	.	.	.	.	.	.	.
8F\	4ee-X\	.	4gg\	.	.	.	.	.	.	.	.	.
8F\	.	.	.	.	.	.	.	.	.	.	.	.
8F\	4cc\	.	4ee-X\	.	.	.	.	.	.	.	.	.
8F\J	.	.	.	.	.	.	.	.	.	.	.	.
=71	=71	=71	=71	=71	=71	=71	=71	=71	=71	=71	=71	=71
!LO:LB:g=original	!	!	!	!	!	!	!	!	!	!	!	!
8B-\L	4gg\	.	4bb-\	.	(4g\	Je-	(4bb-\	Je-	2.r	2.r	4gg\	4bb-\
8B-\	.	.	.	.	.	.	.	.	.	.	.	.
8B-\	4ff\	.	4aa\	.	4f\)	.	4aa\)	.	.	.	4ff\	4aa\
8B-\	.	.	.	.	.	.	.	.	.	.	.	.
8B-\	4ee-\	.	4gg\	.	4e-\	su	4gg\	-su	.	.	4ee-X\	4gg\
8B-\J	.	.	.	.	.	.	.	.	.	.	.	.
=72	=72	=72	=72	=72	=72	=72	=72	=72	=72	=72	=72	=72
*	*	*	*	*	*	*ij	*	*ij	*	*	*	*
8B-\L	4ee-\	.	4gg\	.	(4e-\	Je-	4gg\	Je-	2.r	2.r	4ee-\	4gg\
8B-\	.	.	.	.	.	.	.	.	.	.	.	.
8B-\	4dd\	.	4ff\	.	4d\)	.	4ff\	.	.	.	4dd\	4ff\
8B-\	.	.	.	.	.	.	.	.	.	.	.	.
8B-\	4cc\	.	4ee-\	.	4c\	-su	4ee-X\	-su	.	.	4cc\	4ee-X\
*	*	*	*	*	*	*Xij	*	*Xij	*	*	*	*
8B-\J	.	.	.	.	.	.	.	.	.	.	.	.
=73	=73	=73	=73	=73	=73	=73	=73	=73	=73	=73	=73	=73
!	!	!	!	!	!LO:LB:g=original	!	!	!	!	!	!	!
8B-\L	4cc\	.	4ee-\	.	4c\	Chri-	4ee-\	-Chri-	2.r	2.r	4cc\	4ee-X\
8B-\	.	.	.	.	.	.	.	.	.	.	.	.
8B-\	4b-\	.	4dd\	.	4B-\	-ste	4dd\	-ste	.	.	4b-\	4dd\
8B-\	.	.	.	.	.	.	.	.	.	.	.	.
8B-\	4cc\	.	4ee-\	.	4r	.	4r	.	.	.	4cc\	4ee-\
8B-\J	.	.	.	.	.	.	.	.	.	.	.	.
=74	=74	=74	=74	=74	=74	=74	=74	=74	=74	=74	=74	=74
8B-\L	4dd\	.	4ff\	.	2.r	.	2.r	.	2.r	2.r	4dd\	4ff\
8B-\	.	.	.	.	.	.	.	.	.	.	.	.
8B-\	4ee-\	.	4gg\	.	.	.	.	.	.	.	4ee-\	4gg\
8B-\	.	.	.	.	.	.	.	.	.	.	.	.
8B-\	4cc\	.	4aa\	.	.	.	.	.	.	.	4cc\	4aa\
8B-\J	.	.	.	.	.	.	.	.	.	.	.	.
=75	=75	=75	=75	=75	=75	=75	=75	=75	=75	=75	=75	=75
*	*	*	*	*	*	*	*	*ij	*	*	*	*
!	!LO:LB:g=original	!	!	!	!	!	!	!	!	!	!	!
8B-\L	4dd\	.	4bb-\	.	(4g\	Je-	4bb-\	Je-	2.r	2.r	4dd\	4bb-\
8B-\	.	.	.	.	.	.	.	.	.	.	.	.
8B-\	4ff\	.	4aa\	.	4f\)	.	4aa\	.	.	.	4ff\	4aa\
8B-\	.	.	.	.	.	.	.	.	.	.	.	.
8B-\	4ee-\	.	4gg\	.	4e-\	su	4gg\	-su	.	.	4ee-\	4gg\
8B-\J	.	.	.	.	.	.	.	.	.	.	.	.
=76	=76	=76	=76	=76	=76	=76	=76	=76	=76	=76	=76	=76
*	*	*	*	*	*	*ij	*	*	*	*	*	*
8B-\L	4ee-\	.	4gg\	.	(4e-\	Je-	4gg\	Je-	2.r	2.r	4ee-\	4gg\
8B-\	.	.	.	.	.	.	.	.	.	.	.	.
8B-\	4dd\	.	4ff\	.	4d\)	.	4ff\	.	.	.	4dd\	4ff\
8B-\	.	.	.	.	.	.	.	.	.	.	.	.
8B-\	4cc\	.	4ee-\	.	4c\	-su	4ee-X\	-su	.	.	4cc\	4ee-\
*	*	*	*	*	*	*Xij	*	*	*	*	*	*
8B-\J	.	.	.	.	.	.	.	.	.	.	.	.
=77	=77	=77	=77	=77	=77	=77	=77	=77	=77	=77	=77	=77
!	!	!	!	!	!	!	!	!	!	!	!	!LO:LB:g=original
8B-\L	4cc\	.	4ee-\	.	4c\	Chri-	4ee-\	-Chri-	2.r	2.r	4cc\	4ee-\
8B-\	.	.	.	.	.	.	.	.	.	.	.	.
8B-\	4b-\	.	4dd\	.	4B-\	-ste	4dd\	-ste	.	.	4b-\	4dd\
*	*	*	*	*	*	*	*	*Xij	*	*	*	*
8B-\	.	.	.	.	.	.	.	.	.	.	.	.
8B-\	4a\	.	4cc\	.	4r	.	4r	.	.	.	4a\	4cc\
8B-\J	.	.	.	.	.	.	.	.	.	.	.	.
=78	=78	=78	=78	=78	=78	=78	=78	=78	=78	=78	=78	=78
8B-\L	4b-\	.	4dd\	.	2.r	.	2.r	.	2.r	2.r	4b-\	4dd\
8B-\	.	.	.	.	.	.	.	.	.	.	.	.
8B-\	4cc\	.	4ee-\	.	.	.	.	.	.	.	4cc\	4ee-\
8B-\	.	.	.	.	.	.	.	.	.	.	.	.
8B-\	4dd\	.	4ff\	.	.	.	.	.	.	.	4dd\	4ff\
8B-\J	.	.	.	.	.	.	.	.	.	.	.	.
=79	=79	=79	=79	=79	=79	=79	=79	=79	=79	=79	=79	=79
!	!	!	!	!	!	!	!	!	!	!LO:TX:t=P:problem=nadliczbowa pauza 0r	!	!
!LO:TX:t=P:problem=nadliczbowe takty w cor 1 in B	!LO:TX:t=P:problem=nadliczbowe takty w cor 1 in B	!	!LO:TX:t=P:problem=nadliczbowe takty w cor 1 in B	!	!LO:TX:t=P:problem=nadliczbowe takty w cor 1 in B	!	!LO:TX:t=P:problem=nadliczbowe takty w cor 1 in B	!	!LO:TX:t=P:problem=nadliczbowe takty w cor 1 in B	!	!LO:TX:t=P:problem=nadliczbowe takty w cor 1 in B	!LO:TX:t=P:problem=nadliczbowe takty w cor 1 in B
2.ryy	2.ryy	.	2.ryy	.	2.ryy	.	2.ryy	.	2.ryy	2.r	2.ryy	2.ryy
=80	=80	=80	=80	=80	=80	=80	=80	=80	=80	=80	=80	=80
2.ryy	2.ryy	.	2.ryy	.	2.ryy	.	2.ryy	.	2.ryy	2.r	2.ryy	2.ryy
=81	=81	=81	=81	=81	=81	=81	=81	=81	=81	=81	=81	=81
*	*tremolo	*	*tremolo	*	*	*	*	*	*	*	*	*
!	!	!	!	!	!	!	!	!	!LO:LB:g=original	!	!	!
8E-\L	16ee- 16f\LL	f	16gg\LL	.	2e-\	Je-	2gg\	Je-	2.cc\	2.ee-\	2ee-\	2gg\
.	16ee- 16f\	.	16gg\	.	.	.	.	.	.	.	.	.
8E-\	16ee- 16f\	.	16gg\	.	.	.	.	.	.	.	.	.
.	16ee- 16f\	.	16gg\	.	.	.	.	.	.	.	.	.
8E-\	16ee- 16f\	.	16gg\	.	.	.	.	.	.	.	.	.
.	16ee- 16f\	.	16gg\	.	.	.	.	.	.	.	.	.
8E-\	16ee- 16f\	.	16gg\	.	.	.	.	.	.	.	.	.
.	16ee- 16f\	.	16gg\	.	.	.	.	.	.	.	.	.
8E-\	16ee- 16f\	.	16gg\	.	4c\	-su	4ee-\	-su	.	.	4cc\	4ee-\
.	16ee- 16f\	.	16gg\	.	.	.	.	.	.	.	.	.
8E-\J	16ee- 16f\	.	16gg\	.	.	.	.	.	.	.	.	.
.	16ee- 16f\JJ	.	16gg\JJ	.	.	.	.	.	.	.	.	.
=82	=82	=82	=82	=82	=82	=82	=82	=82	=82	=82	=82	=82
8F\L	16cc 16f\LL	.	16aa\LL	.	(4A\	Chri-	(4cc\	Chri-	2.f/	2.cc\	4a\	4dd\
.	16cc 16f\	.	16aa\	.	.	.	.	.	.	.	.	.
8F\	16cc 16f\	.	16aa\	.	.	.	.	.	.	.	.	.
.	16cc 16f\	.	16aa\	.	.	.	.	.	.	.	.	.
8F\	16cc 16f\	.	16aa\	.	4G\	.	4b-\	.	.	.	4g\	4cc\
.	16cc 16f\	.	16aa\	.	.	.	.	.	.	.	.	.
8F\	16cc 16f\	.	16aa\	.	.	.	.	.	.	.	.	.
.	16cc 16f\	.	16aa\	.	.	.	.	.	.	.	.	.
8F\	16cc 16f\	.	16aa\	.	4A\)	.	4cc\)	.	.	.	4a\	4dd\
.	16cc 16f\	.	16aa\	.	.	.	.	.	.	.	.	.
8F\J	16cc 16f\	.	16aa\	.	.	.	.	.	.	.	.	.
.	16cc 16f\JJ	.	16aa\JJ	.	.	.	.	.	.	.	.	.
*	*Xtremolo	*	*Xtremolo	*	*	*	*	*	*	*	*	*
=83	=83	=83	=83	=83	=83	=83	=83	=83	=83	=83	=83	=83
!	!	!LO:DY:a	!	!	!	!	!	!	!	!	!	!
4B-\	4dd\	p	4bb-\	p	4B-\	-ste	4dd\	-ste	4b-\	4dd\	4b-\	4dd\
4r	4dd\	.	4ff\	.	4r	.	4r	.	4r	4r	4dd\	4ff\
4r	4dd\	.	4ff\	.	4r	.	4r	.	4r	4r	4dd\	4gg\
=84	=84	=84	=84	=84	=84	=84	=84	=84	=84	=84	=84	=84
!	!	!	!	!	!	!	!LO:LB:g=original	!	!	!	!	!
2.r	4dd\	.	4ff\	.	2.r	.	2.r	.	2.r	2.r	4cc\	4ff\
.	4cc\	.	4ee-\	.	.	.	.	.	.	.	4b-\	4ee-\
.	4b-\	.	4dd\	.	.	.	.	.	.	.	4a\	4dd\
=85	=85	=85	=85	=85	=85	=85	=85	=85	=85	=85	=85	=85
*	*tremolo	*	*tremolo	*	*	*	*	*	*	*	*	*
!	!	!	!	!	!	!	!	!	!	!	!LO:LB:g=original	!
!	!	!	!	!	!	!	!	!	!	!LO:LB:g=original	!	!
8E-\L	16ee- 16f\LL	f	16gg\LL	f	2e-\	Je-	2gg\	Je-	2.cc\	2.ee-\	2ee-\	2gg\
.	16ee- 16f\	.	16gg\	.	.	.	.	.	.	.	.	.
8E-\	16ee- 16f\	.	16gg\	.	.	.	.	.	.	.	.	.
.	16ee- 16f\	.	16gg\	.	.	.	.	.	.	.	.	.
8E-\	16ee- 16f\	.	16gg\	.	.	.	.	.	.	.	.	.
.	16ee- 16f\	.	16gg\	.	.	.	.	.	.	.	.	.
8E-\	16ee- 16f\	.	16gg\	.	.	.	.	.	.	.	.	.
.	16ee- 16f\	.	16gg\	.	.	.	.	.	.	.	.	.
8E-\	16ee- 16f\	.	16gg\	.	4c\	-su	4ee-\	-su	.	.	4cc\	4ee-\
.	16ee- 16f\	.	16gg\	.	.	.	.	.	.	.	.	.
8E-\J	16ee- 16f\	.	16gg\	.	.	.	.	.	.	.	.	.
.	16ee- 16f\JJ	.	16gg\JJ	.	.	.	.	.	.	.	.	.
=86	=86	=86	=86	=86	=86	=86	=86	=86	=86	=86	=86	=86
!	!	!	!	!	!LO:LB:g=original	!	!	!	!	!	!	!
8F\L	16cc 16f\LL	.	16aa\LL	.	(4A\	Chri-	(4cc\	Chri-	2.f/	2.cc\	4a\	4dd\
.	16cc 16f\	.	16aa\	.	.	.	.	.	.	.	.	.
8F\	16cc 16f\	.	16aa\	.	.	.	.	.	.	.	.	.
.	16cc 16f\	.	16aa\	.	.	.	.	.	.	.	.	.
8F\	16cc 16f\	.	16aa\	.	4G\	.	4b-\	.	.	.	4g\	4cc\
.	16cc 16f\	.	16aa\	.	.	.	.	.	.	.	.	.
8F\	16cc 16f\	.	16aa\	.	.	.	.	.	.	.	.	.
.	16cc 16f\	.	16aa\	.	.	.	.	.	.	.	.	.
8F\	16cc 16f\	.	16aa\	.	4A\)	.	4cc\)	.	.	.	4a\	4dd\
.	16cc 16f\	.	16aa\	.	.	.	.	.	.	.	.	.
8F\J	16cc 16f\	.	16aa\	.	.	.	.	.	.	.	.	.
.	16cc 16f\JJ	.	16aa\JJ	.	.	.	.	.	.	.	.	.
*	*Xtremolo	*	*Xtremolo	*	*	*	*	*	*	*	*	*
=87	=87	=87	=87	=87	=87	=87	=87	=87	=87	=87	=87	=87
!	!	!LO:DY:a	!	!	!	!	!	!	!	!	!	!
4B-\	4dd\	p	4bb-\	p	4B-\	-ste	4dd\	-ste	4b-\	4dd\	4b-\	4dd\
4r	4dd\	.	4ff\	.	4r	.	4r	.	4r	4r	4dd\	4ff\
4r	4dd\	.	4ff\	.	4r	.	4r	.	4r	4r	4dd\	4gg\
=88	=88	=88	=88	=88	=88	=88	=88	=88	=88	=88	=88	=88
!	!	!	!	!	!	!	!	!	!LO:TX:t=P:problem=brak taktu	!LO:TX:t=P:problem=brak taktu	!	!
2.r	4dd\	.	4ff\	.	2.r	.	2.r	.	2.ryy	2.ryy	4dd\	4ff\
.	4cc\	.	4ee-\	.	.	.	.	.	.	.	4cc\	4ee-\
.	4b-\	.	4dd\	.	.	.	.	.	.	.	4b-\	4dd\
=89	=89	=89	=89	=89	=89	=89	=89	=89	=89	=89	=89	=89
*	*tremolo	*	*tremolo	*	*	*	*	*	*	*	*	*
8E-\L	16ee- 16f\LL	f	16gg\LL	f	2e-\	Je-	2gg\	Je-	2.cc\	2.ee-\	2ee-\	2gg\
.	16ee- 16f\	.	16gg\	.	.	.	.	.	.	.	.	.
8E-\	16ee- 16f\	.	16gg\	.	.	.	.	.	.	.	.	.
.	16ee- 16f\	.	16gg\	.	.	.	.	.	.	.	.	.
8E-\	16ee- 16f\	.	16gg\	.	.	.	.	.	.	.	.	.
.	16ee- 16f\	.	16gg\	.	.	.	.	.	.	.	.	.
8E-\	16ee- 16f\	.	16gg\	.	.	.	.	.	.	.	.	.
.	16ee- 16f\	.	16gg\	.	.	.	.	.	.	.	.	.
8E-\	16ee- 16f\	.	16gg\	.	4c\	-su	4ee-\	-su	.	.	4cc\	4ee-\
.	16ee- 16f\	.	16gg\	.	.	.	.	.	.	.	.	.
8E-\J	16ee- 16f\	.	16gg\	.	.	.	.	.	.	.	.	.
.	16ee- 16f\JJ	.	16gg\JJ	.	.	.	.	.	.	.	.	.
=90	=90	=90	=90	=90	=90	=90	=90	=90	=90	=90	=90	=90
8F\L	16cc 16f\LL	.	16aa\LL	.	4f\	Chri-	(4cc\	Chri-	2.f/	2.cc\	4e-/	4cc\
.	16cc 16f\	.	16aa\	.	.	.	.	.	.	.	.	.
8F\	16cc 16f\	.	16aa\	.	.	.	.	.	.	.	.	.
.	16cc 16f\	.	16aa\	.	.	.	.	.	.	.	.	.
8F\	16cc 16f\	.	16aa\	.	4e-\	.	4b-\	.	.	.	4d/	4b-\
.	16cc 16f\	.	16aa\	.	.	.	.	.	.	.	.	.
8F\	16cc 16f\	.	16aa\	.	.	.	.	.	.	.	.	.
.	16cc 16f\	.	16aa\	.	.	.	.	.	.	.	.	.
8F\	16cc 16f\	.	16aa\	.	4f\	.	4cc\)	.	.	.	4e-/	4cc\
.	16cc 16f\	.	16aa\	.	.	.	.	.	.	.	.	.
8F\J	16cc 16f\	.	16aa\	.	.	.	.	.	.	.	.	.
.	16cc 16f\JJ	.	16aa\JJ	.	.	.	.	.	.	.	.	.
*	*Xtremolo	*	*Xtremolo	*	*	*	*	*	*	*	*	*
=91	=91	=91	=91	=91	=91	=91	=91	=91	=91	=91	=91	=91
!LO:LB:g=original	!LO:LB:g=original	!	!	!	!	!	!	!	!	!	!	!
4B-\	4dd\	.	4bb- 4dd\	.	4B-\	-ste	4dd\	-ste	4d/	4b-\	4d/	4b-\
4r	4r	.	4r	.	4r	.	4r	.	4r	4r	4r	4r
4r	4d/	.	4b-\	.	4r	.	4dd\	Cum	4r	4r	4r	4r
=92	=92	=92	=92	=92	=92	=92	=92	=92	=92	=92	=92	=92
4r	2c/	.	2a\	.	2.r	.	(2a\	San-	2.r	2.r	2.r	2.r
4F\	.	.	.	.	.	.	.	.	.	.	.	.
4F\	4e-/	.	4cc\	.	.	.	4cc\)	.	.	.	.	.
=93	=93	=93	=93	=93	=93	=93	=93	=93	=93	=93	=93	=93
4B-\	4d/	.	4b-\	.	4r	.	4b-\	-cto	2.r	2.r	2.r	2.r
4r	4d/	.	4f/	.	4r	.	4r	.	.	.	.	.
4r	8dd\L	.	8ff\L	f	4B-\	Cum	4dd\	Cum	.	.	.	.
.	8b-\J	.	8dd\J	.	.	.	.	.	.	.	.	.
=94	=94	=94	=94	=94	=94	=94	=94	=94	=94	=94	=94	=94
!	!	!	!LO:LB:g=original	!	!	!	!	!	!	!	!	!
4r	2a\	.	2cc\	.	(2A\	San-	(2cc\	San-	2.r	2.r	2.r	2.r
4F\	.	.	.	.	.	.	.	.	.	.	.	.
4F\	4cc\	.	4ee-\	.	4c\)	.	4ee-\)	.	.	.	.	.
=95	=95	=95	=95	=95	=95	=95	=95	=95	=95	=95	=95	=95
!	!LO:TX:t=P:problem=mixed beam	!	!LO:TX:t=P:problem=mixed beam	!	!	!	!	!	!	!	!	!
4B-\	8b-\L	.	8dd\L	.	4B-\	-cto	4dd\	-cto	2.r	2.r	2.r	2.r
.	8B-/	.	8d/	.	.	.	.	.	.	.	.	.
4r	8d/	.	8f/	.	4r	.	4r	.	.	.	.	.
.	8f/	.	8b-/	.	.	.	.	.	.	.	.	.
4r	8b-/	.	8dd/	.	4B-\	Cum	4ff\	Cum	.	.	.	.
.	8dd/J	.	8ff/J	.	.	.	.	.	.	.	.	.
=96	=96	=96	=96	=96	=96	=96	=96	=96	=96	=96	=96	=96
*	*tremolo	*	*tremolo	*	*	*	*	*	*	*	*	*
8B-\L	8dd\L	.	8bb-\L	.	2.B-\	San-	2.ff\	San-	2.r	2.r	2.r	2.r
8B-\	8dd\	.	8bb-\	.	.	.	.	.	.	.	.	.
8B-\	8dd\	.	8bb-\	.	.	.	.	.	.	.	.	.
8B-\	8dd\	.	8bb-\	.	.	.	.	.	.	.	.	.
8B-\	8dd\	.	8bb-\	.	.	.	.	.	.	.	.	.
8B-\J	8dd\J	.	8bb-\J	.	.	.	.	.	.	.	.	.
=97	=97	=97	=97	=97	=97	=97	=97	=97	=97	=97	=97	=97
8A\L	8cc\L	.	8aa\L	.	2.A\	-cto	2.ff\	-cto	2.r	2.r	2.r	2.r
8A\	8cc\	.	8aa\	.	.	.	.	.	.	.	.	.
8A\	8cc\	.	8aa\	.	.	.	.	.	.	.	.	.
8A\	8cc\	.	8aa\	.	.	.	.	.	.	.	.	.
8A\	8cc\	.	8aa\	.	.	.	.	.	.	.	.	.
8A\J	8cc\J	.	8aa\J	.	.	.	.	.	.	.	.	.
=98	=98	=98	=98	=98	=98	=98	=98	=98	=98	=98	=98	=98
!	!	!	!	!	!	!	!LO:LB:g=original	!	!	!	!	!
8G\L	8b-\L	.	8gg\L	.	2G\	Spi-	2ff\	Spi-	2.r	2.r	2.r	2.r
8G\	8b-\	.	8gg\	.	.	.	.	.	.	.	.	.
8G\	8b-\	.	8gg\	.	.	.	.	.	.	.	.	.
8G\	8b-\	.	8gg\	.	.	.	.	.	.	.	.	.
8G\	8b-\	.	8gg\	.	4G\	-ri-	4een\	-ri-	.	.	.	.
8G\J	8b-\J	.	8gg\J	.	.	.	.	.	.	.	.	.
*	*Xtremolo	*	*Xtremolo	*	*	*	*	*	*	*	*	*
=99	=99	=99	=99	=99	=99	=99	=99	=99	=99	=99	=99	=99
!	!	!	!LO:TX:t=P:problem=mixed beam	!	!	!	!	!	!	!	!	!
4F\	8a\L	.	8ff\L	.	4F\	-tu	4ff\	-tu	2.r	2.r	2.r	2.r
.	8f\	.	8f/	.	.	.	.	.	.	.	.	.
4r	8f\	.	8a/	.	4r	.	4r	.	.	.	.	.
.	8a\	.	8cc/	.	.	.	.	.	.	.	.	.
4r	8g\	.	8een/	.	4r	.	4ff\	in	.	.	.	.
.	8a\J	.	8ff/J	.	.	.	.	.	.	.	.	.
=100	=100	=100	=100	=100	=100	=100	=100	=100	=100	=100	=100	=100
*	*tremolo	*	*	*	*	*	*	*	*	*	*	*
!	!	!	!	!	!	!	!	!	!	!	!	!LO:PB:g=original
8E-\L	16cc 16e-X\LL	.	8gg\L	.	2.r	.	4gg\	glo-	2.r	2.r	4ee-\	4gg\
.	16cc 16e-X\	.	.	.	.	.	.	.	.	.	.	.
8E-\	16cc 16e-X\	.	8bbn\	.	.	.	.	.	.	.	.	.
.	16cc 16e-X\	.	.	.	.	.	.	.	.	.	.	.
8E-\	16cc 16e-X\	.	8ccc\	.	.	.	4ee-\	-ri-	.	.	4cc\	4ee-\
.	16cc 16e-X\	.	.	.	.	.	.	.	.	.	.	.
8E-\	16cc 16e-X\	.	8gg\	.	.	.	.	.	.	.	.	.
.	16cc 16e-X\	.	.	.	.	.	.	.	.	.	.	.
8E-\	16cc 16e-X\	.	8ff\	.	.	.	4cc\	-a	.	.	4a\	4cc\
.	16cc 16e-X\	.	.	.	.	.	.	.	.	.	.	.
8E-\J	16cc 16e-X\	.	8ee-X\J	.	.	.	.	.	.	.	.	.
.	16cc 16e-X\JJ	.	.	.	.	.	.	.	.	.	.	.
=101	=101	=101	=101	=101	=101	=101	=101	=101	=101	=101	=101	=101
8D\L	16b- 16d\LL	.	8ff\L	.	2.r	.	(4ff\	De-	2.r	2.r	4dd\	4ff\
.	16b- 16d\	.	.	.	.	.	.	.	.	.	.	.
8D\	16b- 16d\	.	8aa\	.	.	.	.	.	.	.	.	.
.	16b- 16d\	.	.	.	.	.	.	.	.	.	.	.
8D\	16b- 16d\	.	8bb-X\	.	.	.	4dd\)	.	.	.	4b-\	4dd\
.	16b- 16d\	.	.	.	.	.	.	.	.	.	.	.
8D\	16b- 16d\	.	8ff\	.	.	.	.	.	.	.	.	.
.	16b- 16d\	.	.	.	.	.	.	.	.	.	.	.
8D\	16b- 16d\	.	8ee-\	.	.	.	4b-\	-i	.	.	4d/	4b-\
.	16b- 16d\	.	.	.	.	.	.	.	.	.	.	.
8D\J	16b- 16d\	.	8dd\J	.	.	.	.	.	.	.	.	.
.	16b- 16d\JJ	.	.	.	.	.	.	.	.	.	.	.
=102	=102	=102	=102	=102	=102	=102	=102	=102	=102	=102	=102	=102
*	*	*	*tremolo	*	*	*	*	*	*	*	*	*
8E-\L	16e-/LL	.	16cc\LL	.	2.e-\	Pa-	2.g\	Pa-	2.cc\	2.ee-\	2.ee-\	2.gg\
.	16e-/	.	16bb-\	.	.	.	.	.	.	.	.	.
8E-\	16e-/	.	16cc\	.	.	.	.	.	.	.	.	.
.	16e-/	.	16bb-\	.	.	.	.	.	.	.	.	.
8E-\	16e-/	.	16cc\	.	.	.	.	.	.	.	.	.
.	16e-/	.	16bb-\	.	.	.	.	.	.	.	.	.
8E-\	16e-/	.	16cc\	.	.	.	.	.	.	.	.	.
.	16e-/	.	16bb-\	.	.	.	.	.	.	.	.	.
8E-\	16e-/	.	16cc\	.	.	.	.	.	.	.	.	.
.	16e-/	.	16bb-\	.	.	.	.	.	.	.	.	.
8E-\J	16e-/	.	16cc\	.	.	.	.	.	.	.	.	.
.	16e-/JJ	.	16bb-\JJ	.	.	.	.	.	.	.	.	.
*	*	*	*Xtremolo	*	*	*	*	*	*	*	*	*
=103	=103	=103	=103	=103	=103	=103	=103	=103	=103	=103	=103	=103
*	*	*	*tremolo	*	*	*	*	*	*	*	*	*
8F\L	16f/LL	.	16cc\LL	.	2.f\	.	2.a\	.	2.f/	2.cc\	2.cc\	2.ee-\
.	16f/	.	16aa\	.	.	.	.	.	.	.	.	.
8F\	16f/	.	16cc\	.	.	.	.	.	.	.	.	.
.	16f/	.	16aa\	.	.	.	.	.	.	.	.	.
8F\	16f/	.	16cc\	.	.	.	.	.	.	.	.	.
.	16f/	.	16aa\	.	.	.	.	.	.	.	.	.
8F\	16f/	.	16cc\	.	.	.	.	.	.	.	.	.
.	16f/	.	16aa\	.	.	.	.	.	.	.	.	.
8F\	16f/	.	16cc\	.	.	.	.	.	.	.	.	.
.	16f/	.	16aa\	.	.	.	.	.	.	.	.	.
8F\J	16f/	.	16cc\	.	.	.	.	.	.	.	.	.
.	16f/JJ	.	16aa\JJ	.	.	.	.	.	.	.	.	.
*	*Xtremolo	*	*Xtremolo	*	*	*	*	*	*	*	*	*
=104	=104	=104	=104	=104	=104	=104	=104	=104	=104	=104	=104	=104
!	!	!	!LO:LB:g=original	!	!	!	!	!	!	!	!	!
!	!	!	!LO:TX:t=P:problem=mixed beam	!	!	!	!	!	!	!	!	!
4B-\	8d/L	.	8bb-\L	.	4B-\	-tris	4b-\	-tris	4d/	4b-\	4b-\	4dd\
.	8d/	.	8f/	.	.	.	.	.	.	.	.	.
4r	8e-/	.	8g/	.	4r	.	4r	.	4r	4r	4r	4r
.	8c/	.	8a/	.	.	.	.	.	.	.	.	.
4r	8d/	.	8b-/	.	4r	.	4r	.	4r	4r	4r	4r
.	8e-/J	.	8cc/J	.	.	.	.	.	.	.	.	.
=105	=105	=105	=105	=105	=105	=105	=105	=105	=105	=105	=105	=105
!	!LO:LB:g=original	!	!	!	!	!	!	!	!	!	!	!
2.r	8b-\L	.	8dd\L	.	2.r	.	4r	.	2.r	2.r	2.r	2.r
.	8a\	.	8cc\	.	.	.	.	.	.	.	.	.
.	8b-\	.	8dd\	.	.	.	4r	.	.	.	.	.
.	8cc\	.	8ee-\	.	.	.	.	.	.	.	.	.
.	8dd\	.	8ff\	.	.	.	4ff\	in	.	.	.	.
.	8b-\J	.	8dd\J	.	.	.	.	.	.	.	.	.
=106	=106	=106	=106	=106	=106	=106	=106	=106	=106	=106	=106	=106
*	*tremolo	*	*	*	*	*	*	*	*	*	*	*
!	!	!	!	!	!	!	!	!	!	!	!LO:TX:t=P:problem=fragment zapisany powtórką	!LO:TX:t=P:problem=fragment zapisany powtórką
8E-\L	16cc 16e-\LL	.	8gg\L	.	2.r	.	4gg\	glo-	2.r	2.r	4ee-\	4gg\
.	16cc 16e-\	.	.	.	.	.	.	.	.	.	.	.
8E-\	16cc 16e-\	.	8bbn\	.	.	.	.	.	.	.	.	.
.	16cc 16e-\	.	.	.	.	.	.	.	.	.	.	.
8E-\	16cc 16e-\	.	8ccc\	.	.	.	4ee-\	-ri-	.	.	4cc\	4ee-\
.	16cc 16e-\	.	.	.	.	.	.	.	.	.	.	.
8E-\	16cc 16e-\	.	8gg\	.	.	.	.	.	.	.	.	.
.	16cc 16e-\	.	.	.	.	.	.	.	.	.	.	.
8E-\	16cc 16e-\	.	8ff\	.	.	.	4cc\	-a	.	.	4a\	4cc\
.	16cc 16e-\	.	.	.	.	.	.	.	.	.	.	.
8E-\J	16cc 16e-\	.	8ee-X\J	.	.	.	.	.	.	.	.	.
.	16cc 16e-\JJ	.	.	.	.	.	.	.	.	.	.	.
=107	=107	=107	=107	=107	=107	=107	=107	=107	=107	=107	=107	=107
!LO:LB:g=original	!	!	!	!	!	!	!	!	!	!	!	!
8D\L	16b- 16d\LL	.	8ff\L	.	2.r	.	(4ff\	De-	2.r	2.r	4dd\	4ff\
.	16b- 16d\	.	.	.	.	.	.	.	.	.	.	.
8D\	16b- 16d\	.	8aa\	.	.	.	.	.	.	.	.	.
.	16b- 16d\	.	.	.	.	.	.	.	.	.	.	.
8D\	16b- 16d\	.	8bb-X\	.	.	.	4dd\)	.	.	.	4b-\	4dd\
.	16b- 16d\	.	.	.	.	.	.	.	.	.	.	.
8D\	16b- 16d\	.	8ff\	.	.	.	.	.	.	.	.	.
.	16b- 16d\	.	.	.	.	.	.	.	.	.	.	.
8D\	16b- 16d\	.	8ee-\	.	.	.	4b-\	-i	.	.	4d/	4b-\
.	16b- 16d\	.	.	.	.	.	.	.	.	.	.	.
8D\J	16b- 16d\	.	8dd\J	.	.	.	.	.	.	.	.	.
.	16b- 16d\JJ	.	.	.	.	.	.	.	.	.	.	.
=108	=108	=108	=108	=108	=108	=108	=108	=108	=108	=108	=108	=108
*	*	*	*tremolo	*	*	*	*	*	*	*	*	*
8E-\L	16e-/LL	.	16cc\LL	.	2.e-\	Pa-	(2.g\	Pa-	2.r	2.r	2.ee-\	2.gg\
.	16e-/	.	16bb-\	.	.	.	.	.	.	.	.	.
8E-\	16e-/	.	16cc\	.	.	.	.	.	.	.	.	.
.	16e-/	.	16bb-\	.	.	.	.	.	.	.	.	.
8E-\	16e-/	.	16cc\	.	.	.	.	.	.	.	.	.
.	16e-/	.	16bb-\	.	.	.	.	.	.	.	.	.
8E-\	16e-/	.	16cc\	.	.	.	.	.	.	.	.	.
.	16e-/	.	16bb-\	.	.	.	.	.	.	.	.	.
8E-\	16e-/	.	16cc\	.	.	.	.	.	.	.	.	.
.	16e-/	.	16bb-\	.	.	.	.	.	.	.	.	.
8E-\J	16e-/	.	16cc\	.	.	.	.	.	.	.	.	.
.	16e-/JJ	.	16bb-\JJ	.	.	.	.	.	.	.	.	.
*	*	*	*Xtremolo	*	*	*	*	*	*	*	*	*
=109	=109	=109	=109	=109	=109	=109	=109	=109	=109	=109	=109	=109
*	*	*	*tremolo	*	*	*	*	*	*	*	*	*
8F\L	16f/LL	.	16cc\LL	.	2.f\	.	2.a\)	.	2.r	2.r	2.cc\	2.ee-\
.	16f/	.	16aa\	.	.	.	.	.	.	.	.	.
8F\	16f/	.	16cc\	.	.	.	.	.	.	.	.	.
.	16f/	.	16aa\	.	.	.	.	.	.	.	.	.
8F\	16f/	.	16cc\	.	.	.	.	.	.	.	.	.
.	16f/	.	16aa\	.	.	.	.	.	.	.	.	.
8F\	16f/	.	16cc\	.	.	.	.	.	.	.	.	.
.	16f/	.	16aa\	.	.	.	.	.	.	.	.	.
8F\	16f/	.	16cc\	.	.	.	.	.	.	.	.	.
.	16f/	.	16aa\	.	.	.	.	.	.	.	.	.
8F\J	16f/	.	16cc\	.	.	.	.	.	.	.	.	.
.	16f/JJ	.	16aa\JJ	.	.	.	.	.	.	.	.	.
*	*Xtremolo	*	*Xtremolo	*	*	*	*	*	*	*	*	*
=110	=110	=110	=110	=110	=110	=110	=110	=110	=110	=110	=110	=110
!	!	!	!LO:TX:t=P:problem=mixed beam	!	!	!	!	!	!	!	!	!
4B-\	8d/L	.	8bb-\L	.	4B-\	-tris	4b-\	-tris	2.r	2.r	4b-\	4dd\
.	8d/	.	8f/	.	.	.	.	.	.	.	.	.
4r	8e-/	.	8g/	.	4r	.	4r	.	.	.	4r	4r
.	8c/	.	8a/	.	.	.	.	.	.	.	.	.
4r	8d/	.	8b-/	.	4r	.	4r	.	.	.	4r	4r
.	8e-/J	.	8cc/J	.	.	.	.	.	.	.	.	.
=111	=111	=111	=111	=111	=111	=111	=111	=111	=111	=111	=111	=111
!	!	!	!	!	!	!	!LO:TX:t=P:problem=brak taktu	!	!	!	!	!
2.r	8b-\L	.	8dd\L	.	2.r	.	2.ryy	.	2.r	2.r	2.r	2.r
.	8a\	.	8cc\	.	.	.	.	.	.	.	.	.
.	8b-\	.	8dd\	.	.	.	.	.	.	.	.	.
.	8cc\	.	8ee-\	.	.	.	.	.	.	.	.	.
.	8dd\	.	8ff\	.	.	.	.	.	.	.	.	.
.	8b-\J	.	8dd\J	.	.	.	.	.	.	.	.	.
=112	=112	=112	=112	=112	=112	=112	=112	=112	=112	=112	=112	=112
*	*tremolo	*	*tremolo	*	*	*	*	*	*	*	*	*
8E-\L	16e-/LL	.	16bb- 16cc\LL	.	2.e-\	A-	(2.g\	A-	2.cc\	2.ee-\	2.ee-\	2.gg\
.	16e-/	.	16bb- 16cc\	.	.	.	.	.	.	.	.	.
8E-\	16e-/	.	16bb- 16cc\	.	.	.	.	.	.	.	.	.
.	16e-/	.	16bb- 16cc\	.	.	.	.	.	.	.	.	.
8E-\	16e-/	.	16bb- 16cc\	.	.	.	.	.	.	.	.	.
.	16e-/	.	16bb- 16cc\	.	.	.	.	.	.	.	.	.
8E-\	16e-/	.	16bb- 16cc\	.	.	.	.	.	.	.	.	.
.	16e-/	.	16bb- 16cc\	.	.	.	.	.	.	.	.	.
8E-\	16e-/	.	16bb- 16cc\	.	.	.	.	.	.	.	.	.
.	16e-/	.	16bb- 16cc\	.	.	.	.	.	.	.	.	.
8E-\J	16e-/	.	16bb- 16cc\	.	.	.	.	.	.	.	.	.
.	16e-/JJ	.	16bb- 16cc\JJ	.	.	.	.	.	.	.	.	.
=113	=113	=113	=113	=113	=113	=113	=113	=113	=113	=113	=113	=113
!	!	!	!LO:LB:g=original	!	!	!	!	!	!	!	!	!
8F\L	16f/LL	.	16aa 16cc\LL	.	2.f\	.	2.a\)	.	2.f/	2.cc\	2.cc\	2.ee-\
.	16f/	.	16aa 16cc\	.	.	.	.	.	.	.	.	.
8F\	16f/	.	16aa 16cc\	.	.	.	.	.	.	.	.	.
.	16f/	.	16aa 16cc\	.	.	.	.	.	.	.	.	.
8F\	16f/	.	16aa 16cc\	.	.	.	.	.	.	.	.	.
.	16f/	.	16aa 16cc\	.	.	.	.	.	.	.	.	.
8F\	16f/	.	16aa 16cc\	.	.	.	.	.	.	.	.	.
.	16f/	.	16aa 16cc\	.	.	.	.	.	.	.	.	.
8F\	16f/	.	16aa 16cc\	.	.	.	.	.	.	.	.	.
.	16f/	.	16aa 16cc\	.	.	.	.	.	.	.	.	.
8F\J	16f/	.	16aa 16cc\	.	.	.	.	.	.	.	.	.
.	16f/JJ	.	16aa 16cc\JJ	.	.	.	.	.	.	.	.	.
*	*Xtremolo	*	*Xtremolo	*	*	*	*	*	*	*	*	*
=114	=114	=114	=114	=114	=114	=114	=114	=114	=114	=114	=114	=114
!	!	!	!	!	!	!	!LO:LB:g=original	!	!	!	!	!
!	!	!	!LO:TX:t=P:problem=mixed beam	!	!	!	!	!	!	!	!	!
4G\	8d/L	.	8bb-\L	.	4g\	-men	4b-\	-men	4d/	4b-\	4b-\	4dd\
.	8d/	.	8f/	.	.	.	.	.	.	.	.	.
4r	8e-/	.	8g/	.	4r	.	4r	.	4r	4r	4r	4r
.	8c/	.	8a/	.	.	.	.	.	.	.	.	.
4r	8d/	.	8b-/	.	4r	.	4r	.	4r	4r	4r	4r
.	8e-/J	.	8cc/J	.	.	.	.	.	.	.	.	.
=115	=115	=115	=115	=115	=115	=115	=115	=115	=115	=115	=115	=115
!	!	!	!	!	!LO:LB:g=original	!	!	!	!	!	!	!
2.r	8b-\L	.	8dd\L	.	2.r	.	2.r	.	2.r	2.r	2.r	2.r
.	8a\	.	8cc\	.	.	.	.	.	.	.	.	.
.	8b-\	.	8dd\	.	.	.	.	.	.	.	.	.
.	8cc\	.	8ee-\	.	.	.	.	.	.	.	.	.
.	8dd\	.	8ff\	.	.	.	.	.	.	.	.	.
.	8b-\J	.	8dd\J	.	.	.	.	.	.	.	.	.
=116	=116	=116	=116	=116	=116	=116	=116	=116	=116	=116	=116	=116
*	*tremolo	*	*tremolo	*	*	*	*	*	*	*	*	*
8E-\L	16e-/LL	.	16bb- 16cc\LL	.	2.e-\	A-	(2.g\	A-	2.cc\	2.ee-\	2.ee-\	2.gg\
.	16e-/	.	16bb- 16cc\	.	.	.	.	.	.	.	.	.
8E-\	16e-/	.	16bb- 16cc\	.	.	.	.	.	.	.	.	.
.	16e-/	.	16bb- 16cc\	.	.	.	.	.	.	.	.	.
8E-\	16e-/	.	16bb- 16cc\	.	.	.	.	.	.	.	.	.
.	16e-/	.	16bb- 16cc\	.	.	.	.	.	.	.	.	.
8E-\	16e-/	.	16bb- 16cc\	.	.	.	.	.	.	.	.	.
.	16e-/	.	16bb- 16cc\	.	.	.	.	.	.	.	.	.
8E-\	16e-/	.	16bb- 16cc\	.	.	.	.	.	.	.	.	.
.	16e-/	.	16bb- 16cc\	.	.	.	.	.	.	.	.	.
8E-\J	16e-/	.	16bb- 16cc\	.	.	.	.	.	.	.	.	.
.	16e-/JJ	.	16bb- 16cc\JJ	.	.	.	.	.	.	.	.	.
=117	=117	=117	=117	=117	=117	=117	=117	=117	=117	=117	=117	=117
!	!	!	!	!	!	!	!	!	!LO:LB:g=original	!	!	!
8F\L	16f/LL	.	16aa 16cc\LL	.	2.f\	.	2.a\)	.	2.f/	2.cc\	2.cc\	2.ee-\
.	16f/	.	16aa 16cc\	.	.	.	.	.	.	.	.	.
8F\	16f/	.	16aa 16cc\	.	.	.	.	.	.	.	.	.
.	16f/	.	16aa 16cc\	.	.	.	.	.	.	.	.	.
8F\	16f/	.	16aa 16cc\	.	.	.	.	.	.	.	.	.
.	16f/	.	16aa 16cc\	.	.	.	.	.	.	.	.	.
8F\	16f/	.	16aa 16cc\	.	.	.	.	.	.	.	.	.
.	16f/	.	16aa 16cc\	.	.	.	.	.	.	.	.	.
8F\	16f/	.	16aa 16cc\	.	.	.	.	.	.	.	.	.
.	16f/	.	16aa 16cc\	.	.	.	.	.	.	.	.	.
8F\J	16f/	.	16aa 16cc\	.	.	.	.	.	.	.	.	.
.	16f/JJ	.	16aa 16cc\JJ	.	.	.	.	.	.	.	.	.
*	*Xtremolo	*	*Xtremolo	*	*	*	*	*	*	*	*	*
=118	=118	=118	=118	=118	=118	=118	=118	=118	=118	=118	=118	=118
!	!LO:TX:t=P:problem=fragment zapisany powtórką	!	!LO:TX:t=P:problem=fragment zapisany powtórką	!	!	!	!	!	!LO:TX:t=P:problem=brak taktu	!	!	!
!	!	!	!LO:TX:t=P:problem=mixed beam	!	!	!	!	!	!	!	!	!
!	!	!	!	!	!	!	!	!	!	!	!	!LO:TX:t=P:problem=brak taktu
4G\	8d/L	.	8bb-\L	.	4g\	-men	4b-\	-men	4d/	4b-\	2.ryy	2.ryy
.	8d/	.	8f/	.	.	.	.	.	.	.	.	.
4r	8e-/	.	8g/	.	4r	.	4r	.	4r	4r	.	.
.	8c/	.	8a/	.	.	.	.	.	.	.	.	.
4r	8d/	.	8b-/	.	4r	.	4r	.	4r	4r	.	.
.	8e-/J	.	8cc/J	.	.	.	.	.	.	.	.	.
=119	=119	=119	=119	=119	=119	=119	=119	=119	=119	=119	=119	=119
!	!	!	!	!	!	!	!	!	!	!	!LO:TX:t=P:problem=fragment zapisany powtórką	!LO:TX:t=P:problem=fragment zapisany powtórką
2.r	8b-\L	2.ryy	8dd\L	2.ryy	2.r	2.ryy	2.r	2.ryy	2.r	2.r	2.r	2.r
.	8a\	.	8cc\	.	.	.	.	.	.	.	.	.
.	8b-\	.	8dd\	.	.	.	.	.	.	.	.	.
.	8cc\	.	8ee-\	.	.	.	.	.	.	.	.	.
.	8dd\	.	8ff\	.	.	.	.	.	.	.	.	.
.	8b-\J	.	8dd\J	.	.	.	.	.	.	.	.	.
=120	=120	=120	=120	=120	=120	=120	=120	=120	=120	=120	=120	=120
*	*tremolo	*	*tremolo	*	*	*	*	*	*	*	*	*
8E-\L	16e-/LL	.	16bb- 16cc\LL	.	(2.e-\	A-	(2.g\	A-	2.cc\	2.ee-\	2.ee-\	2.gg\
.	16e-/	.	16bb- 16cc\	.	.	.	.	.	.	.	.	.
8E-\	16e-/	.	16bb- 16cc\	.	.	.	.	.	.	.	.	.
.	16e-/	.	16bb- 16cc\	.	.	.	.	.	.	.	.	.
8E-\	16e-/	.	16bb- 16cc\	.	.	.	.	.	.	.	.	.
.	16e-/	.	16bb- 16cc\	.	.	.	.	.	.	.	.	.
8E-\	16e-/	.	16bb- 16cc\	.	.	.	.	.	.	.	.	.
.	16e-/	.	16bb- 16cc\	.	.	.	.	.	.	.	.	.
8E-\	16e-/	.	16bb- 16cc\	.	.	.	.	.	.	.	.	.
.	16e-/	.	16bb- 16cc\	.	.	.	.	.	.	.	.	.
8E-\J	16e-/	.	16bb- 16cc\	.	.	.	.	.	.	.	.	.
.	16e-/JJ	.	16bb- 16cc\JJ	.	.	.	.	.	.	.	.	.
=121	=121	=121	=121	=121	=121	=121	=121	=121	=121	=121	=121	=121
8F\L	16f/LL	.	16aa 16cc\LL	.	2.f\)	.	2.a\)	.	2.f/	2.cc\	2.cc\	2.ee-\
.	16f/	.	16aa 16cc\	.	.	.	.	.	.	.	.	.
8F\	16f/	.	16aa 16cc\	.	.	.	.	.	.	.	.	.
.	16f/	.	16aa 16cc\	.	.	.	.	.	.	.	.	.
8F\	16f/	.	16aa 16cc\	.	.	.	.	.	.	.	.	.
.	16f/	.	16aa 16cc\	.	.	.	.	.	.	.	.	.
8F\	16f/	.	16aa 16cc\	.	.	.	.	.	.	.	.	.
.	16f/	.	16aa 16cc\	.	.	.	.	.	.	.	.	.
8F\	16f/	.	16aa 16cc\	.	.	.	.	.	.	.	.	.
.	16f/	.	16aa 16cc\	.	.	.	.	.	.	.	.	.
8F\J	16f/	.	16aa 16cc\	.	.	.	.	.	.	.	.	.
.	16f/JJ	.	16aa 16cc\JJ	.	.	.	.	.	.	.	.	.
*	*	*	*Xtremolo	*	*	*	*	*	*	*	*	*
*	*Xtremolo	*	*	*	*	*	*	*	*	*	*	*
=122	=122	=122	=122	=122	=122	=122	=122	=122	=122	=122	=122	=122
4B-\	4d 4B-/	.	4bb- 4dd\	.	4B-\	-men	4b-\	-men	4d/	4b-\	4b-\	4dd\
4B-\	4d 4B-/	.	4b- 4d/	.	2B-\	a-	2dd\	a-	4d/	4b-\	4b-\	4dd\
4B-\	4d 4B-/	.	4b- 4d/	.	.	.	.	.	4d/	4b-\	4b-\	4dd\
*Xtremolo	*	*	*	*	*	*	*	*	*	*	*	*
=123	=123	=123	=123	=123	=123	=123	=123	=123	=123	=123	=123	=123
4B-\	4d 4B-/	.	4b- 4d/	.	4B-\	-men	4dd\	-men	4d/	4b-\	4b-\	4dd\
4r	4r	.	4r	.	4r	.	4r	.	4r	4r	4r	4r
4r	4r	.	4r	.	4r	.	4r	.	4r	4r	4r	4r
==	==	==	==	==	==	==	==	==	==	==	==	==
*-	*-	*-	*-	*-	*-	*-	*-	*-	*-	*-	*-	*-
!!!system-decoration: [(g1)][(g2)][(g3)][(g4)]s9
!!!RDF**kern: > = above
!!!RDF**kern: < = below
!!!RDF**dynam: p = p.
!!!RDF**dynam: f = f.
!!!ENC: Marta Opryszak
!!!END: 2021-11-21
!!!ENC: Kamil Watkowski
!!!END: 2021-12-01
